%
(Header)
(Generated by gcodetools from Inkscape.)
(Using default header. To add your own header create file "header" in the output dir.)
M3
(Header end.)
G21 (All units in mm)

(Start cutting path id: path3577)
(Change tool to Default tool)

G00 Z5.000000
G00 X67.783048 Y93.112877

G01 Z-0.125000 F100.0(Penetrate)
G03 X64.568526 Y89.870637 Z-0.125000 I0.079694 J-3.293653 F400.000000
G02 X59.898113 Y82.072392 Z-0.125000 I-9.082293 J0.141747
G03 X59.991611 Y80.505295 Z-0.125000 I1.590566 J-0.691439
G03 X60.553877 Y79.724822 Z-0.125000 I4.374674 J2.558817
G02 X59.035641 Y77.786991 Z-0.125000 I-6.234691 J3.321042
G02 X57.247411 Y76.434363 Z-0.125000 I-8.976121 J10.008424
G03 X57.886771 Y73.909909 Z-0.125000 I2.947037 J-0.596806
G02 X58.605626 Y72.806265 Z-0.125000 I-4.272021 J-3.568504
G01 X53.275876 Y68.021405 Z-0.125000
G03 X53.966217 Y65.413858 Z-0.125000 I2.568657 J-0.715111
G03 X55.761286 Y63.693834 Z-0.125000 I49.752205 J50.126196
G02 X52.537457 Y60.007449 Z-0.125000 I-18.767427 J13.159703
G02 X48.310639 Y57.167865 Z-0.125000 I-11.280567 J12.225832
G03 X48.599272 Y54.738366 Z-0.125000 I3.580972 J-0.806462
G03 X50.600631 Y52.267502 Z-0.125000 I6.453952 J3.181629
G02 X46.891207 Y48.504133 Z-0.125000 I-20.855914 J16.847145
G02 X42.779932 Y45.892362 Z-0.125000 I-12.205415 J14.671217
G03 X50.903279 Y37.530790 Z-0.125000 I9.562311 J1.163136
G03 X57.153022 Y37.531908 Z-0.125000 I3.121175 J20.659505
G03 X61.955764 Y35.594585 Z-0.125000 I8.608277 J14.418634
G03 X67.659585 Y34.957589 Z-0.125000 I5.552725 J23.865277
G01 X67.783056 Y34.957290 Z-0.125000
G03 X73.609318 Y35.552122 Z-0.125000 I0.286753 J26.022228
G03 X78.522473 Y37.480060 Z-0.125000 I-3.538224 J16.241122
G03 X84.772137 Y37.448614 Z-0.125000 I3.228778 J20.642962
G03 X92.935964 Y45.770668 Z-0.125000 I-1.392728 J9.531578
G02 X88.837410 Y48.402358 Z-0.125000 I8.177911 J17.243507
G02 X85.146293 Y52.183684 Z-0.125000 I17.246303 J20.527067
G03 X87.159617 Y54.644807 Z-0.125000 I-4.425105 J5.674024
G03 X87.460037 Y57.072876 Z-0.125000 I-3.284435 J1.638997
G02 X83.247048 Y59.932939 Z-0.125000 I7.126747 J15.030971
G02 X80.041145 Y63.634924 Z-0.125000 I15.625258 J16.770548
G03 X81.844540 Y65.346217 Z-0.125000 I-47.704983 J52.078326
G03 X82.547526 Y67.950383 Z-0.125000 I-1.869111 J1.901528
G01 X77.241057 Y72.761050 Z-0.125000
G02 X77.965260 Y73.861192 Z-0.125000 I4.978857 J-2.489050
G03 X78.616862 Y76.382514 Z-0.125000 I-2.298296 J1.938824
G02 X76.835219 Y77.743804 Z-0.125000 I7.242906 J11.325990
G02 X75.326403 Y79.688979 Z-0.125000 I4.741952 J5.235954
G03 X75.892450 Y80.466716 Z-0.125000 I-3.796071 J3.357691
G03 X75.993551 Y82.033340 Z-0.125000 I-1.492803 J0.882911
G02 X71.361037 Y89.854153 Z-0.125000 I4.450358 J7.918486
G03 X68.162283 Y93.111957 Z-0.125000 I-3.294430 J-0.035427
G01 X67.783048 Y93.112877 Z-0.125000
G01 X67.783048 Y93.112877 Z-0.125000
G00 Z5.000000

(End cutting path id: path3577)


(Start cutting path id: path3577)
(Change tool to Default tool)

G00 Z5.000000
G00 X65.856420 Y84.201067

G01 Z-0.125000 F100.0(Penetrate)
G01 X67.748358 Y82.450221 Z-0.125000 F400.000000
G01 X70.254485 Y83.026226 Z-0.125000
G01 X69.181665 Y80.691669 Z-0.125000
G01 X70.508026 Y78.474764 Z-0.125000
G01 X67.951101 Y78.772010 Z-0.125000
G01 X66.253065 Y76.835847 Z-0.125000
G01 X65.747658 Y79.359442 Z-0.125000
G01 X63.377674 Y80.370612 Z-0.125000
G01 X65.620888 Y81.635173 Z-0.125000
G01 X65.856420 Y84.201067 Z-0.125000
G01 X65.856420 Y84.201067 Z-0.125000
G00 Z5.000000

(End cutting path id: path3577)


(Start cutting path id: path3577)
(Change tool to Default tool)

G00 Z5.000000
G00 X62.867228 Y69.911958

G01 Z-0.125000 F100.0(Penetrate)
G02 X64.902888 Y69.087388 Z-0.125000 I-0.007140 J-2.942682 F400.000000
G02 X65.718064 Y67.162186 Z-0.125000 I-1.850511 J-1.918734
G02 X64.893593 Y65.241000 Z-0.125000 I-2.665684 J0.006468
G02 X62.853918 Y64.426280 Z-0.125000 I-2.032536 J2.127958
G02 X60.818218 Y65.250890 Z-0.125000 I0.007140 J2.942678
G02 X60.003081 Y67.176052 Z-0.125000 I1.850547 J1.918695
G02 X60.827589 Y69.097275 Z-0.125000 I2.665688 J-0.006468
G02 X62.867228 Y69.911958 Z-0.125000 I2.032499 J-2.127999
G01 X62.867228 Y69.911958 Z-0.125000
G00 Z5.000000

(End cutting path id: path3577)


(Start cutting path id: path3577)
(Change tool to Default tool)

G00 Z5.000000
G00 X71.040884 Y65.455933

G01 Z-0.125000 F100.0(Penetrate)
G01 X73.425105 Y63.042433 Z-0.125000 F400.000000
G01 X76.760300 Y63.634064 Z-0.125000
G01 X75.200786 Y60.630409 Z-0.125000
G01 X76.798666 Y57.636732 Z-0.125000
G01 X73.457433 Y58.191646 Z-0.125000
G01 X71.105519 Y55.745539 Z-0.125000
G01 X70.593304 Y59.098181 Z-0.125000
G01 X67.545359 Y60.578428 Z-0.125000
G01 X70.574122 Y62.096847 Z-0.125000
G01 X71.040884 Y65.455933 Z-0.125000
G01 X71.040884 Y65.455933 Z-0.125000
G00 Z5.000000

(End cutting path id: path3577)


(Start cutting path id: path3577)
(Change tool to Default tool)

G00 Z5.000000
G00 X63.485777 Y55.861041

G01 Z-0.125000 F100.0(Penetrate)
G01 X63.238280 Y51.998714 Z-0.125000 F400.000000
G01 X66.284021 Y49.610067 Z-0.125000
G01 X62.533414 Y48.649025 Z-0.125000
G01 X61.192844 Y45.009837 Z-0.125000
G01 X59.119400 Y48.286891 Z-0.125000
G01 X55.256816 Y48.428555 Z-0.125000
G01 X57.724688 Y51.412368 Z-0.125000
G01 X56.666569 Y55.136751 Z-0.125000
G01 X60.270266 Y53.708073 Z-0.125000
G01 X63.485777 Y55.861041 Z-0.125000
G01 X63.485777 Y55.861041 Z-0.125000
G00 Z5.000000

(End cutting path id: path3577)


(Start cutting path id: path3577)
(Change tool to Default tool)

G00 Z5.000000
G00 X77.032260 Y48.499194

G01 Z-0.125000 F100.0(Penetrate)
G02 X79.344166 Y47.563484 Z-0.125000 I-0.008114 J-3.343977 F400.000000
G02 X80.270252 Y45.378064 Z-0.125000 I-2.098269 J-2.178082
G02 X79.334480 Y43.191973 Z-0.125000 I-3.038614 J0.007373
G02 X77.017131 Y42.263865 Z-0.125000 I-2.309253 J2.408770
G02 X74.704312 Y43.203207 Z-0.125000 I0.008096 J3.336878
G02 X73.779160 Y45.393814 Z-0.125000 I2.113461 J2.183234
G02 X74.715840 Y47.574714 Z-0.125000 I3.024355 J-0.007338
G02 X77.032260 Y48.499194 Z-0.125000 I2.308307 J-2.419498
G01 X77.032260 Y48.499194 Z-0.125000
G00 Z5.000000

(End cutting path id: path3577)


(Start cutting path id: rect3536)
(Change tool to Default tool)

G00 Z5.000000
G00 X22.854794 Y99.912503

G01 Z-0.125000 F100.0(Penetrate)
G01 X116.977848 Y97.833285 Z-0.125000 F400.000000
G02 X121.150975 Y96.752908 Z-0.125000 I-0.207695 J-9.402128
G02 X122.156592 Y94.935873 Z-0.125000 I-0.881620 J-1.674713
G01 X117.511177 Y33.335756 Z-0.125000
G02 X116.367623 Y31.529234 Z-0.125000 I-2.269014 J0.171114
G02 X112.332436 Y30.438344 Z-0.125000 I-4.124250 J7.247050
G01 X26.571125 Y29.522304 Z-0.125000
G02 X22.516241 Y30.591064 Z-0.125000 I-0.084443 J7.906135
G02 X21.392375 Y32.419719 Z-0.125000 I1.137429 J1.958732
G01 X17.676045 Y97.015091 Z-0.125000
G02 X18.691201 Y98.871056 Z-0.125000 I1.994361 J0.114757
G02 X22.854794 Y99.912503 Z-0.125000 I3.984092 J-7.084452
G01 X22.854794 Y99.912503 Z-0.125000
G00 Z5.000000

(End cutting path id: rect3536)


(Footer)
M5
G00 X0.0000 Y0.0000
M2
(Using default footer. To add your own footer create file "footer" in the output dir.)
(end)
%