%
(Header)
(Generated by gcodetools from Inkscape.)
(Using default header. To add your own header create file "header" in the output dir.)
M3
(Header end.)
G21 (All units in mm)
(Tool diameter should be at least 3.60814940004 mm)
(Depth, as a function of radius w, must be 10)
(Rapid feeds use safe Z=2.0 mm)
(Material surface at Z=0.0 mm)
(Change tool to Default tool)

G00 Z2.000000
G00 X6.873381 Y-309.656173

G01 Z-0.039342 F100.0(Penetrate)
G01 X6.873381 Y-309.656173 Z-0.039342 F400.000000
G01 X6.888000 Y-309.619654 Z-0.075523
G01 X6.881312 Y-309.606051 Z-0.072757
G01 X6.872026 Y-309.578167 Z-0.063472
G01 X6.870333 Y-309.499794 Z-0.061778
G01 X7.112310 Y-308.893383 Z-0.113482
G01 X7.267900 Y-308.448798 Z-0.104733
G01 X7.420892 Y-308.056114 Z-0.111619
G01 X7.832824 Y-307.142166 Z-0.059464
G01 X7.960078 Y-307.003313 Z-0.059746
G01 X7.960078 Y-307.003313 Z-0.059746
G01 X8.021659 Y-306.952259 Z-0.070781
G01 X8.184501 Y-306.786707 Z-0.106878
G01 X8.292394 Y-306.617797 Z-0.105410
G01 X8.633714 Y-306.094247 Z-0.106567
G01 X9.043388 Y-305.523367 Z-0.098298
G01 X9.220539 Y-305.295755 Z-0.069991
G01 X9.552799 Y-304.997841 Z-0.105777
G01 X10.229568 Y-304.172059 Z-0.060819
G01 X10.669806 Y-303.627540 Z-0.040358
G01 X10.902950 Y-303.366597 Z-0.047385
G01 X11.099518 Y-303.145448 Z-0.049474
G01 X11.109509 Y-303.136614 Z-0.048486
G01 X11.103610 Y-303.128825 Z-0.038721
G01 X11.219208 Y-303.040941 Z-0.038721
G01 X11.640651 Y-302.501501 Z-0.052578
G01 X11.714339 Y-302.355790 Z-0.064544
G01 X11.806908 Y-302.108902 Z-0.054977
G01 X12.101548 Y-301.670949 Z-0.117941
G01 X12.211389 Y-301.575417 Z-0.153077
G01 X12.233825 Y-301.504325 Z-0.130669
G01 X12.411710 Y-301.157757 Z-0.098383
G01 X12.616349 Y-300.811018 Z-0.092343
G01 X12.834084 Y-300.474638 Z-0.102870
G01 X13.042138 Y-300.127645 Z-0.087291
G01 X13.077190 Y-300.031605 Z-0.052239
G01 X13.136739 Y-299.947475 Z-0.043575
G01 X13.279318 Y-299.810653 Z-0.076764
G01 X13.388001 Y-299.720907 Z-0.117263
G01 X13.465302 Y-299.616061 Z-0.123246
G01 X13.628765 Y-299.479691 Z-0.173228
G01 X13.704316 Y-299.380349 Z-0.168374
G01 X13.778117 Y-299.272173 Z-0.156520
G01 X13.914854 Y-299.078005 Z-0.142438
G01 X14.027771 Y-298.964467 Z-0.162137
G01 X14.124009 Y-298.842095 Z-0.163237
G01 X14.294810 Y-298.456269 Z-0.050602
G01 X14.521745 Y-298.200293 Z-0.059380
G01 X14.740890 Y-297.936811 Z-0.057404
G01 X15.106537 Y-297.504898 Z-0.066520
G01 X15.337451 Y-297.242911 Z-0.083651
G01 X15.994352 Y-296.382528 Z-0.060593
G01 X16.953936 Y-295.531854 Z-0.120114
G01 X17.532886 Y-295.052838 Z-0.045127
G01 X17.686161 Y-295.019959 Z-0.103265
G01 X17.773057 Y-294.882489 Z-0.053961
G01 X17.778815 Y-294.837644 Z-0.059718
G01 X17.782766 Y-294.807587 Z-0.063641
G01 X17.799050 Y-294.699722 Z-0.113115
G01 X17.764788 Y-294.619853 Z-0.112296
G01 X17.630055 Y-294.452947 Z-0.052324
G01 X17.202291 Y-294.552712 Z-0.152259
G01 X17.056834 Y-294.710531 Z-0.075128
G01 X16.860210 Y-294.806317 Z-0.051449
G01 X16.792759 Y-294.808039 Z-0.053171
G01 X16.790077 Y-294.861407 Z0.000000
G01 X16.792759 Y-294.808039 Z-0.053171
G01 X16.692852 Y-294.810268 Z-0.055908
G01 X16.514036 Y-294.830870 Z-0.102136
G01 X16.386500 Y-294.907691 Z-0.106370
G01 X16.162613 Y-295.042735 Z-0.113623
G01 X16.048031 Y-295.053657 Z-0.130556
G01 X15.975104 Y-294.994983 Z-0.147884
G01 X15.975104 Y-294.994983 Z-0.147884
G01 X15.967513 Y-295.025039 Z-0.117800
G01 X15.845705 Y-294.959846 Z-0.117800
G01 X15.727229 Y-295.017673 Z-0.106765
G01 X15.391187 Y-295.215680 Z-0.108881
G01 X14.754267 Y-295.568966 Z-0.131882
G01 X14.175289 Y-295.769090 Z-0.131403
G01 X14.043914 Y-295.697801 Z-0.132278
G01 X13.999041 Y-295.705082 Z-0.104676
G01 X13.999041 Y-295.705082 Z-0.104676
G01 X13.965569 Y-295.717951 Z-0.071205
G01 X14.035278 Y-295.636728 Z-0.140914
G01 X14.266475 Y-295.147298 Z-0.046934
G01 X14.639234 Y-294.837813 Z-0.100753
G01 X14.939462 Y-294.459776 Z-0.054779
G01 X15.005699 Y-294.371582 Z-0.058872
G01 X14.921456 Y-294.280227 Z-0.057714
G01 X14.847739 Y-294.179219 Z-0.070810
G01 X14.857166 Y-294.141006 Z-0.062089
G01 X15.110996 Y-293.978305 Z-0.063302
G01 X15.434931 Y-293.818765 Z-0.105241
G01 X15.468685 Y-293.704832 Z-0.086219
G01 X15.433238 Y-293.287764 Z-0.049699
G01 X15.453304 Y-293.179983 Z-0.069455
G01 X15.455392 Y-293.109795 Z-0.048288
G01 X15.521009 Y-293.032833 Z-0.048966
G01 X15.709731 Y-292.987310 Z-0.164056
G01 X16.115651 Y-292.650732 Z-0.060678
G01 X16.245417 Y-292.658916 Z-0.068862
G01 X16.305869 Y-292.663347 Z-0.073293
G01 X16.305869 Y-292.663347 Z-0.073293
G01 X16.231955 Y-293.129776 Z-0.045268
G01 X16.142039 Y-293.554887 Z-0.041712
G01 X16.562127 Y-293.320389 Z-0.063444
G01 X16.740660 Y-293.209109 Z-0.062794
G01 X16.891819 Y-293.100651 Z-0.051985
G01 X16.903615 Y-293.090434 Z-0.052747
G01 X16.903615 Y-293.090434 Z-0.052747
G01 X16.901837 Y-293.088487 Z-0.050123
G01 X16.943239 Y-293.048581 Z-0.050123
G01 X16.567432 Y-292.039185 Z-0.106003
G01 X16.499981 Y-291.994706 Z-0.088900
G01 X16.439614 Y-291.969165 Z-0.063359
G01 X16.296640 Y-291.960896 Z-0.108825
G01 X16.199866 Y-292.010031 Z-0.108938
G01 X16.199866 Y-292.010031 Z-0.108938
G01 X16.221541 Y-292.052647 Z-0.061129
G01 X16.007645 Y-292.161697 Z-0.061129
G01 X15.812798 Y-292.145272 Z-0.070951
G01 X15.763776 Y-292.040229 Z-0.087489
G01 X15.763776 Y-292.040229 Z-0.087489
G01 X15.735187 Y-291.928497 Z-0.124827
G01 X15.733945 Y-291.906935 Z-0.124206
G01 X15.772666 Y-291.788289 Z-0.103632
G01 X15.807013 Y-291.723519 Z-0.104112
G01 X15.812177 Y-291.558024 Z-0.056501
G01 X15.833880 Y-291.440507 Z-0.050179
G01 X15.848387 Y-291.326715 Z-0.037733
G01 X15.920861 Y-291.212274 Z-0.061637
G01 X15.957635 Y-291.170843 Z-0.064939
G01 X16.037871 Y-291.060466 Z-0.059746
G01 X16.028134 Y-291.018415 Z-0.053792
G01 X15.983571 Y-290.745365 Z-0.116191
G01 X15.829591 Y-290.511911 Z-0.062343
G01 X15.793607 Y-290.488966 Z-0.053142
G01 X15.607228 Y-290.460942 Z-0.053255
G01 X15.480792 Y-290.433679 Z-0.061327
G01 X15.359521 Y-290.450866 Z-0.058392
G01 X15.228485 Y-290.466586 Z-0.092371
G01 X15.228485 Y-290.466586 Z-0.092371
G01 X15.024015 Y-290.506097 Z-0.131657
G01 X14.980864 Y-290.505222 Z-0.130782
G01 X14.874522 Y-290.446238 Z-0.111337
G01 X14.803431 Y-290.356717 Z-0.137724
G01 X14.804362 Y-290.326350 Z-0.136793
G01 X14.937825 Y-290.003488 Z-0.108430
G01 X15.078343 Y-289.625507 Z-0.061186
G01 X15.078343 Y-289.625507 Z-0.061186
G01 X15.164703 Y-289.756684 Z-0.178449
G01 X15.164703 Y-289.756684 Z-0.178449
G01 X15.167751 Y-289.736477 Z-0.157988
G01 X15.239915 Y-289.746948 Z-0.157988
G01 X15.358957 Y-289.646420 Z-0.055485
G01 X15.370020 Y-289.582948 Z-0.066548
G01 X15.373999 Y-289.560145 Z-0.070527
G01 X15.280330 Y-289.216793 Z-0.121045
G01 X15.111589 Y-288.848493 Z-0.115909
G01 X15.058926 Y-288.733544 Z-0.114300
G01 X14.449834 Y-287.326102 Z-0.127282
G01 X14.252505 Y-286.939373 Z-0.076313
G01 X14.250331 Y-286.652183 Z-0.074140
G01 X14.250331 Y-286.608270 Z-0.074140
G01 X14.297378 Y-286.479661 Z-0.087094
G01 X14.350436 Y-286.362539 Z-0.095758
G01 X14.426353 Y-286.192020 Z-0.107103
G01 X14.449383 Y-286.163459 Z-0.106878
G01 X14.605931 Y-286.054916 Z-0.099286
G01 X14.946856 Y-285.854849 Z-0.113369
G01 X15.495298 Y-285.682468 Z-0.110434
G01 X16.461345 Y-285.483529 Z-0.097677
G01 X16.961584 Y-285.315974 Z-0.027686
G01 X16.961584 Y-285.315974 Z-0.027686
G01 X17.001151 Y-285.403660 Z-0.061750
G01 X17.077718 Y-285.463887 Z-0.050207
G01 X17.159422 Y-285.508167 Z-0.057094
G01 X18.537682 Y-286.107664 Z-0.038890
G01 X18.621841 Y-286.118699 Z-0.049925
G01 X18.636686 Y-286.124795 Z-0.056021
G01 X18.653252 Y-286.135858 Z-0.059859
G01 X18.666291 Y-286.148473 Z-0.060057
G01 X18.666291 Y-286.148473 Z-0.060057
G01 X18.694936 Y-286.176131 Z-0.060593
G01 X18.832096 Y-286.303724 Z-0.124460
G01 X18.995136 Y-286.365841 Z-0.128214
G01 X19.152023 Y-286.425587 Z-0.131854
G01 X19.757023 Y-286.616482 Z-0.080546
G01 X20.307949 Y-286.869438 Z-0.099596
G01 X20.865846 Y-287.108650 Z-0.103265
G01 X21.421767 Y-287.323618 Z-0.091638
G01 X21.541430 Y-287.347551 Z-0.075015
G01 X21.660923 Y-287.359319 Z-0.046962
G01 X21.894038 Y-287.507345 Z-0.091045
G01 X22.089082 Y-287.604006 Z-0.094544
G01 X22.290391 Y-287.743170 Z-0.133802
G01 X23.771775 Y-288.479064 Z-0.162221
G01 X23.887035 Y-288.479008 Z-0.114159
G01 X23.971391 Y-288.432356 Z-0.070922
G01 X23.970460 Y-288.404953 Z-0.043519
G01 X24.036726 Y-288.400973 Z-0.043519
G01 X24.319653 Y-288.149203 Z-0.105946
G01 X24.753006 Y-287.576715 Z-0.121271
G01 X24.855876 Y-287.307278 Z-0.046595
G01 X24.826101 Y-286.815759 Z-0.101882
G01 X24.784078 Y-286.561251 Z-0.104309
G01 X24.720663 Y-286.181691 Z-0.104704
G01 X24.688433 Y-285.971520 Z-0.106059
G01 X24.660804 Y-285.759599 Z-0.112240
G01 X24.556607 Y-285.505825 Z-0.052324
G01 X24.556805 Y-285.390424 Z-0.074337
G01 X24.479871 Y-285.108964 Z-0.052014
G01 X24.312541 Y-284.049361 Z-0.055880
G01 X24.258242 Y-283.645162 Z-0.058025
G01 X24.230471 Y-283.459206 Z-0.056219
G01 X24.204987 Y-283.230295 Z-0.045607
G01 X24.208712 Y-283.134340 Z-0.041910
G01 X24.226464 Y-282.992184 Z-0.048599
G01 X24.235890 Y-282.968845 Z-0.045381
G01 X24.367518 Y-282.937772 Z-0.093303
G01 X24.321798 Y-282.856069 Z0.000000
G01 X24.367518 Y-282.937772 Z-0.093303
G01 X24.464744 Y-282.813679 Z-0.044902
G01 X24.503719 Y-282.831431 Z-0.068890
G01 X24.808801 Y-282.873736 Z-0.099286
G01 X24.808801 Y-282.873736 Z-0.099286
G01 X25.093648 Y-282.922193 Z-0.136652
G01 X25.147129 Y-282.787489 Z0.000000
G01 X25.093648 Y-282.922193 Z-0.136652
G01 X25.520199 Y-283.172553 Z-0.044958
G01 X25.978471 Y-283.571700 Z-0.044478
G01 X26.122150 Y-283.244350 Z-0.107865
G01 X26.192029 Y-282.924084 Z-0.101120
G01 X26.469820 Y-281.725882 Z-0.100048
G01 X26.597977 Y-281.179979 Z-0.103322
G01 X26.841140 Y-280.148231 Z-0.110405
G01 X26.880002 Y-279.976866 Z-0.111788
G01 X26.903539 Y-279.804936 Z-0.108289
G01 X26.892081 Y-279.703392 Z-0.081195
G01 X26.913925 Y-279.445582 Z-0.047611
G01 X27.030144 Y-279.251752 Z-0.114046
G01 X27.078799 Y-279.038590 Z-0.110264
G01 X27.141227 Y-278.642604 Z-0.090170
G01 X27.148085 Y-278.369215 Z-0.048542
G01 X27.296816 Y-277.658467 Z-0.069060
G01 X27.476817 Y-277.427157 Z-0.135213
G01 X27.595181 Y-277.387138 Z-0.095194
G01 X27.772755 Y-277.409321 Z-0.117376
G01 X27.769989 Y-277.407966 Z-0.117404
G01 X29.016876 Y-278.035064 Z-0.119606
G01 X29.096180 Y-278.121226 Z-0.086699
G01 X29.133095 Y-278.166608 Z-0.073745
G01 X29.194168 Y-278.233777 Z-0.058589
G01 X29.229191 Y-278.271482 Z-0.055682
G01 X29.272004 Y-278.344210 Z-0.069173
G01 X29.275504 Y-278.611136 Z-0.068975
G01 X29.230913 Y-278.677063 Z-0.061186
G01 X29.186660 Y-278.742510 Z-0.053453
G01 X29.133603 Y-278.854045 Z-0.104761
G01 X29.168175 Y-279.105081 Z-0.104958
G01 X29.189483 Y-279.277914 Z-0.107527
G01 X29.241863 Y-279.727043 Z-0.111196
G01 X29.287837 Y-280.102991 Z-0.109841
G01 X29.336859 Y-280.478996 Z-0.105495
G01 X29.473680 Y-281.069235 Z-0.040414
G01 X29.476672 Y-281.428532 Z-0.081280
G01 X29.636974 Y-282.422914 Z-0.043490
G01 X29.661104 Y-282.739059 Z-0.057602
G01 X29.666212 Y-282.936841 Z-0.074845
G01 X29.666212 Y-282.936841 Z-0.074845
G01 X29.628479 Y-283.044791 Z-0.124488
G01 X29.547848 Y-283.293005 Z-0.242993
G01 X29.624556 Y-283.461943 Z-0.198148
G01 X29.962320 Y-284.981512 Z-0.141365
G01 X31.974085 Y-279.392355 Z-1.804077
G01 X29.747916 Y-283.846330 Z-0.062625
G01 X29.656476 Y-283.946547 Z-0.051647
G01 X29.652412 Y-283.986369 Z-0.052211
G01 X29.685799 Y-284.374170 Z-0.063782
G01 X29.718508 Y-284.589054 Z-0.056078
G01 X29.760080 Y-284.918464 Z-0.045805
G01 X29.740522 Y-285.108992 Z-0.078712
G01 X29.771933 Y-285.411760 Z-0.068636
G01 X29.770691 Y-285.429794 Z-0.067423
G01 X29.668809 Y-285.487057 Z-0.112099
G01 X29.510200 Y-285.757511 Z-0.069568
G01 X29.699825 Y-285.731208 Z-0.036294
G01 X29.983487 Y-285.647557 Z-0.095617
G01 X30.295342 Y-285.489738 Z-0.102644
G01 X30.625627 Y-285.371600 Z-0.107470
G01 X30.813135 Y-285.287978 Z-0.049220
G01 X31.087004 Y-285.306407 Z-0.103519
G01 X31.383422 Y-285.475825 Z-0.117828
G01 X31.763773 Y-285.859252 Z-0.116840
G01 X32.110539 Y-286.213751 Z-0.119408
G01 X32.277191 Y-286.530320 Z-0.127395
G01 X32.408114 Y-286.876522 Z-0.046200
G01 X32.415960 Y-287.019016 Z-0.058364
G01 X32.426374 Y-287.165912 Z-0.074478
G01 X32.449629 Y-287.189168 Z-0.074478
G01 X32.491172 Y-287.230993 Z-0.074337
G01 X32.732924 Y-287.156599 Z-0.094742
G01 X32.954327 Y-287.054463 Z-0.090876
G01 X33.471979 Y-286.807095 Z-0.073999
G01 X33.476212 Y-286.808647 Z-0.075043
G01 X33.581453 Y-287.112347 Z-0.110151
G01 X33.648791 Y-287.256647 Z-0.111196
G01 X33.744634 Y-287.445030 Z-0.128270
G01 X33.835792 Y-287.432415 Z-0.115655
G01 X33.880044 Y-287.414437 Z-0.097677
G01 X33.955285 Y-287.333694 Z-0.062540
G01 X34.014100 Y-287.278011 Z-0.051308
G01 X34.154844 Y-287.184059 Z-0.056416
G01 X34.332305 Y-286.965506 Z-0.091158
G01 X34.496869 Y-286.613096 Z-0.106031
G01 X34.554019 Y-286.482088 Z-0.107809
G01 X34.665158 Y-286.237627 Z-0.109248
G01 X34.743842 Y-286.069310 Z-0.108938
G01 X34.823598 Y-285.898678 Z-0.108627
G01 X34.880070 Y-285.723164 Z-0.090565
G01 X34.870644 Y-285.690624 Z-0.081139
G01 X34.870644 Y-285.679166 Z-0.081139
G01 X34.911820 Y-285.497020 Z-0.052860
G01 X35.562258 Y-284.022465 Z-0.119041
G01 X35.834038 Y-283.355658 Z-0.118392
G01 X35.923700 Y-283.134029 Z-0.117546
G01 X36.129722 Y-282.625860 Z-0.114695
G01 X36.302612 Y-282.230777 Z-0.123613
G01 X36.414230 Y-281.810181 Z-0.066181
G01 X36.658607 Y-281.370197 Z-0.125420
G01 X36.725465 Y-281.203714 Z-0.125391
G01 X36.791562 Y-281.037739 Z-0.124799
G01 X36.858222 Y-280.865838 Z-0.121497
G01 X36.875664 Y-280.822150 Z-0.120170
G01 X36.894516 Y-280.774990 Z-0.118731
G01 X36.921864 Y-280.604218 Z-0.083199
G01 X36.949521 Y-280.448713 Z-0.055513
G01 X37.004696 Y-280.305372 Z-0.057799
G01 X37.126446 Y-280.134910 Z-0.103604
G01 X37.171179 Y-280.047873 Z-0.103914
G01 X37.279157 Y-279.877721 Z-0.122767
G01 X37.452582 Y-279.647400 Z-0.060621
G01 X37.561944 Y-279.647400 Z-0.060621
G01 X37.653948 Y-279.654766 Z-0.067987
G01 X38.497369 Y-280.211844 Z-0.075015
G01 X38.542214 Y-280.310001 Z-0.081816
G01 X38.579214 Y-280.409202 Z-0.096012
G01 X38.550653 Y-280.544866 Z-0.113340
G01 X38.486616 Y-280.696928 Z-0.100189
G01 X38.458056 Y-280.866938 Z-0.047272
G01 X38.444876 Y-281.029865 Z-0.047667
G01 X38.391225 Y-282.282311 Z-0.063444
G01 X38.347368 Y-283.045186 Z-0.084215
G01 X38.324282 Y-283.968532 Z-0.069624
G01 X38.327189 Y-284.334772 Z-0.043688
G01 X38.280735 Y-284.699601 Z-0.067084
G01 X38.244893 Y-285.240226 Z-0.084384
G01 X38.222005 Y-285.534894 Z-0.107696
G01 X38.222005 Y-285.534894 Z-0.107696
G01 X38.260020 Y-285.534837 Z-0.069681
G01 X38.260782 Y-286.025255 Z-0.069681
G01 X38.330548 Y-286.067645 Z0.000000
G01 X38.260782 Y-286.025255 Z-0.069681
G01 X38.200584 Y-286.091323 Z-0.038664
G01 X38.003029 Y-286.114606 Z-0.108712
G01 X38.003029 Y-286.114606 Z-0.108712
G01 X38.049962 Y-286.178784 Z-0.056388
G01 X37.978475 Y-286.996946 Z-0.056388
G01 X37.940375 Y-287.445990 Z-0.055231
G01 X37.894119 Y-287.812145 Z-0.055231
G01 X37.888785 Y-287.822248 Z-0.052070
G01 X37.896264 Y-287.829502 Z-0.041628
G01 X37.871824 Y-287.855099 Z-0.041628
G01 X37.835671 Y-287.899069 Z-0.053961
G01 X37.824072 Y-287.930932 Z-0.065560
G01 X37.783432 Y-288.135910 Z-0.106172
G01 X38.116143 Y-287.949220 Z-0.114695
G01 X38.323407 Y-287.812822 Z-0.119267
G01 X38.630098 Y-287.530205 Z-0.059408
G01 X38.622422 Y-287.463459 Z0.000000
G01 X38.630098 Y-287.530205 Z-0.059408
G01 X38.789554 Y-287.587835 Z-0.055146
G01 X39.068615 Y-287.749125 Z-0.103999
G01 X40.091784 Y-288.044781 Z-0.091440
G01 X41.347842 Y-288.396176 Z-0.089718
G01 X41.459207 Y-288.427502 Z-0.089718
G01 X41.858410 Y-288.534210 Z-0.090452
G01 X42.235515 Y-288.630618 Z-0.088561
G01 X42.610984 Y-288.730609 Z-0.090537
G01 X43.106764 Y-288.870309 Z-0.095109
G01 X43.338694 Y-288.936942 Z-0.094375
G01 X43.572628 Y-289.003377 Z-0.092879
G01 X43.868989 Y-289.082004 Z-0.092710
G01 X43.995368 Y-289.117620 Z-0.100330
G01 X43.995368 Y-289.117620 Z-0.100330
G01 X44.115398 Y-289.152249 Z-0.108402
G01 X44.227920 Y-289.133933 Z-0.057968
G01 X44.243470 Y-289.128824 Z-0.043349
G01 X44.243470 Y-289.128824 Z-0.043349
G01 X44.177571 Y-289.277866 Z-0.086050
G01 X44.193432 Y-289.495121 Z-0.020151
G01 X43.915697 Y-290.212671 Z-0.123529
G01 X43.910391 Y-290.222661 Z-0.124629
G01 X43.726778 Y-290.426172 Z-0.104789
G01 X43.626391 Y-290.533275 Z-0.096943
G01 X43.493464 Y-290.615486 Z-0.106370
G01 X43.440999 Y-290.632307 Z-0.105269
G01 X42.984110 Y-290.760069 Z-0.113679
G01 X42.990036 Y-290.758771 Z-0.113905
G01 X41.606188 Y-291.018500 Z-0.106624
G01 X40.776116 Y-291.118519 Z-0.104535
G01 X39.655976 Y-291.253422 Z-0.101798
G01 X39.502193 Y-291.277580 Z-0.102023
G01 X37.955502 Y-291.532652 Z-0.092456
G01 X37.231151 Y-291.719653 Z-0.066294
G01 X36.900951 Y-291.798844 Z-0.060283
G01 X36.663348 Y-291.776210 Z-0.121073
G01 X36.031001 Y-291.885035 Z-0.097903
G01 X36.017511 Y-291.985647 Z0.000000
G01 X36.031001 Y-291.885035 Z-0.097903
G01 X35.834179 Y-291.964029 Z-0.046030
G01 X35.483828 Y-291.966936 Z-0.090537
G01 X35.238690 Y-291.989626 Z-0.101600
G01 X35.002301 Y-292.073757 Z-0.050574
G01 X34.640633 Y-292.122045 Z-0.049022
G01 X34.453407 Y-292.142901 Z-0.050377
G01 X34.447367 Y-292.194350 Z0.000000
G01 X34.453407 Y-292.142901 Z-0.050377
G01 X34.107177 Y-292.168527 Z-0.065701
G01 X33.944476 Y-292.211284 Z-0.084046
G01 X33.944391 Y-292.354568 Z-0.080885
G01 X33.945012 Y-292.354737 Z-0.080264
G01 X33.943770 Y-292.420354 Z-0.080264
G01 X34.022877 Y-292.576423 Z-0.184489
G01 X34.119143 Y-292.608455 Z-0.185759
G01 X34.430660 Y-292.715643 Z-0.193181
G01 X35.225087 Y-293.037235 Z-0.204047
G01 X35.498137 Y-293.158901 Z-0.197499
G01 X35.662701 Y-293.232223 Z-0.193548
G01 X35.898441 Y-293.330662 Z-0.192447
G01 X36.020418 Y-293.376608 Z-0.194903
G01 X36.149450 Y-293.377116 Z-0.152146
G01 X36.379094 Y-293.514219 Z-0.194225
G01 X36.736952 Y-293.657955 Z-0.185730
G01 X36.568775 Y-293.585508 Z-0.185222
G01 X36.758824 Y-293.666732 Z-0.185222
G01 X37.237783 Y-293.738247 Z-0.072926
G01 X37.543402 Y-293.969556 Z-0.178026
G01 X38.627812 Y-294.317339 Z-0.109982
G01 X39.075812 Y-294.568263 Z-0.173792
G01 X39.407931 Y-294.719280 Z-0.170829
G01 X39.731668 Y-294.868237 Z-0.169559
G01 X40.465700 Y-295.182576 Z-0.164310
G01 X40.887848 Y-295.353715 Z-0.160838
G01 X41.009288 Y-295.402935 Z-0.159822
G01 X41.254003 Y-295.503519 Z-0.156492
G01 X41.572124 Y-295.635599 Z-0.151102
G01 X41.432988 Y-295.574667 Z-0.150566
G01 X41.611381 Y-295.652052 Z-0.150566
G01 X41.938872 Y-295.718036 Z-0.086614
G01 X42.128553 Y-295.798356 Z-0.092004
G01 X43.201506 Y-296.295604 Z-0.162278
G01 X43.341883 Y-296.361531 Z-0.163181
G01 X44.753728 Y-296.987697 Z-0.138966
G01 X44.928198 Y-297.044227 Z-0.051223
G01 X45.024435 Y-297.148395 Z-0.053058
G01 X45.024435 Y-297.148395 Z-0.053058
G01 X44.932487 Y-297.340193 Z-0.043490
G01 X44.662034 Y-297.754806 Z-0.086021
G01 X44.467837 Y-297.970198 Z-0.075466
G01 X43.241976 Y-299.145286 Z-0.137612
G01 X42.761154 Y-299.484771 Z-0.110829
G01 X42.371405 Y-299.723560 Z-0.119775
G01 X42.341405 Y-299.730277 Z-0.117066
G01 X41.154830 Y-299.737022 Z-0.062089
G01 X40.567554 Y-299.711593 Z-0.063528
G01 X40.008359 Y-299.672929 Z-0.073519
G01 X39.911387 Y-299.657943 Z-0.077414
G01 X39.911387 Y-299.657943 Z-0.077414
G01 X39.907464 Y-299.692685 Z-0.042446
G01 X39.716597 Y-299.670897 Z-0.042446
G01 X39.690746 Y-299.682779 Z-0.043829
G01 X39.410302 Y-299.937879 Z-0.053904
G01 X39.259849 Y-300.080768 Z-0.054892
G01 X39.074909 Y-300.249057 Z-0.050772
G01 X38.997410 Y-300.311372 Z-0.046426
G01 X38.999809 Y-300.314646 Z-0.042362
G01 X38.654454 Y-300.568392 Z-0.042362
G01 X38.405308 Y-300.794113 Z-0.047950
G01 X38.410162 Y-300.884311 Z-0.043124
G01 X38.379570 Y-301.005074 Z-0.073716
G01 X38.372006 Y-301.011763 Z-0.074055
G01 X38.212720 Y-301.066063 Z-0.041374
G01 X38.107902 Y-301.083193 Z-0.038326
G01 X37.945060 Y-301.102441 Z-0.058053
G01 X37.845069 Y-301.100381 Z-0.095306
G01 X37.669498 Y-301.208444 Z-0.056219
G01 X37.455856 Y-301.196308 Z-0.066604
G01 X37.385216 Y-301.150616 Z-0.049050
G01 X37.327191 Y-301.083476 Z-0.055457
G01 X37.301086 Y-300.885807 Z-0.070725
G01 X37.317737 Y-300.788553 Z-0.057178
G01 X37.385188 Y-300.755195 Z-0.111337
G01 X37.355554 Y-300.596586 Z-0.050828
G01 X37.385668 Y-300.470376 Z-0.060283
G01 X37.448547 Y-300.167495 Z-0.073688
G01 X37.493448 Y-300.106394 Z-0.074620
G01 X37.614014 Y-300.093638 Z-0.044478
G01 X37.738389 Y-300.130355 Z-0.062625
G01 X37.815887 Y-300.086836 Z-0.059690
G01 X38.016293 Y-299.909770 Z-0.059182
G01 X38.144986 Y-299.796091 Z-0.058900
G01 X38.259145 Y-299.656504 Z-0.046990
G01 X38.237668 Y-299.607538 Z-0.054469
G01 X38.202419 Y-299.556287 Z-0.051421
G01 X37.662640 Y-299.478111 Z-0.052832
G01 X37.069550 Y-299.419042 Z-0.057150
G01 X36.366535 Y-299.325034 Z-0.086134
G01 X36.336450 Y-299.347499 Z-0.068693
G01 X36.104209 Y-299.582815 Z-0.050687
G01 X35.996908 Y-299.686335 Z-0.046228
G01 X35.749766 Y-299.893542 Z-0.051223
G01 X35.561327 Y-300.050796 Z-0.052014
G01 X35.337045 Y-300.167749 Z-0.106736
G01 X35.075086 Y-300.401345 Z-0.103942
G01 X34.941369 Y-300.524196 Z-0.105184
G01 X34.763202 Y-300.759372 Z-0.054582
G01 X34.715281 Y-300.826484 Z-0.058279
G01 X34.651922 Y-300.965112 Z-0.133124
G01 X34.724284 Y-301.047351 Z-0.067959
G01 X34.724284 Y-301.047351 Z-0.067959
G01 X34.581903 Y-301.034200 Z-0.153303
G01 X34.525486 Y-301.069534 Z-0.152513
G01 X34.455862 Y-301.189422 Z-0.057658
G01 X34.387085 Y-301.204041 Z-0.043406
G01 X34.305325 Y-301.205001 Z-0.042446
G01 X34.146434 Y-301.176355 Z-0.101318
G01 X34.055897 Y-301.225377 Z-0.085908
G01 X33.814061 Y-301.344277 Z-0.056021
G01 X33.720984 Y-301.316761 Z-0.072277
G01 X33.608800 Y-301.207230 Z-0.056952
G01 X33.528057 Y-301.068264 Z-0.084638
G01 X33.543043 Y-300.966692 Z-0.108345
G01 X33.549336 Y-300.749212 Z-0.030311
G01 X33.599459 Y-300.671826 Z-0.046708
G01 X33.624661 Y-300.528655 Z-0.042898
G01 X33.650231 Y-300.440432 Z-0.068467
G01 X33.678989 Y-300.341739 Z-0.097226
G01 X33.686750 Y-300.327854 Z-0.098185
G01 X33.803618 Y-300.300140 Z-0.152202
G01 X33.878661 Y-300.162951 Z-0.095532
G01 X33.878661 Y-300.162951 Z-0.095532
G01 X33.877871 Y-300.167919 Z-0.098834
G01 X33.877871 Y-300.167919 Z-0.098834
G01 X33.908210 Y-300.149151 Z-0.063133
G01 X33.971512 Y-300.251428 Z-0.063133
G01 X34.462664 Y-299.759684 Z-0.044591
G01 X34.606738 Y-299.625205 Z-0.090311
G01 X34.619212 Y-299.553888 Z-0.061270
G01 X34.622232 Y-299.452570 Z-0.045974
G01 X34.614386 Y-299.392457 Z-0.053566
G01 X34.540134 Y-299.310866 Z-0.002371
G01 X34.540134 Y-299.310866 Z-0.002371
G01 X33.569346 Y-299.162530 Z-0.054158
G01 X32.898560 Y-299.063075 Z-0.086953
G01 X32.898560 Y-299.063075 Z-0.086953
G01 X32.889077 Y-299.105775 Z-0.057489
G01 X32.759961 Y-299.196679 Z-0.057489
G01 X32.686809 Y-299.245278 Z-0.059916
G01 X32.459987 Y-299.434592 Z-0.045127
G01 X32.206184 Y-299.551827 Z-0.106934
G01 X31.992090 Y-299.720173 Z-0.103999
G01 X31.768909 Y-299.893232 Z-0.102701
G01 X31.709981 Y-299.936073 Z-0.104394
G01 X31.649924 Y-299.979733 Z-0.106116
G01 X31.374701 Y-300.194758 Z-0.110377
G01 X31.100720 Y-300.416274 Z-0.110490
G01 X30.826823 Y-300.637395 Z-0.110857
G01 X30.534272 Y-300.871442 Z-0.112578
G01 X30.451185 Y-300.937200 Z-0.113340
G01 X29.645780 Y-301.729144 Z-0.000085
G01 X29.645780 Y-301.729144 Z-0.000085
G01 X29.935622 Y-301.728015 Z-0.043857
G01 X30.178220 Y-301.763942 Z-0.116953
G01 X30.288258 Y-301.773057 Z-0.101967
G01 X30.306829 Y-301.805485 Z-0.089888
G01 X30.304458 Y-301.812512 Z-0.093528
G01 X30.227581 Y-301.896219 Z-0.104112
G01 X30.035331 Y-302.079579 Z-0.111252
G01 X29.845085 Y-302.345291 Z-0.058984
G01 X29.774924 Y-302.402836 Z-0.053396
G01 X29.699204 Y-302.411218 Z-0.047498
G01 X29.697652 Y-302.458801 Z0.000000
G01 X29.699204 Y-302.411218 Z-0.047498
G01 X29.479889 Y-302.425188 Z-0.040696
G01 X29.369569 Y-302.450250 Z-0.068467
G01 X29.100893 Y-302.710882 Z-0.047385
G01 X28.785171 Y-302.942981 Z-0.078627
G01 X28.747636 Y-302.948908 Z-0.080574
G01 X28.656732 Y-302.832181 Z-0.053453
G01 X28.536138 Y-302.712519 Z-0.001270
G01 X28.536138 Y-302.712519 Z-0.001270
G01 X27.991054 Y-302.982154 Z-0.111111
G01 X27.404060 Y-303.411442 Z-0.118025
G01 X26.790255 Y-303.743618 Z-0.126040
G01 X26.611806 Y-303.762611 Z-0.115147
G01 X26.606557 Y-303.878125 Z0.000000
G01 X26.611806 Y-303.762611 Z-0.115147
G01 X26.489124 Y-303.869009 Z-0.014478
G01 X26.489124 Y-303.869009 Z-0.014478
G01 X26.572972 Y-303.723298 Z-0.110067
G01 X26.572210 Y-303.539204 Z-0.124460
G01 X26.665851 Y-303.339504 Z-0.107922
G01 X27.073465 Y-302.720336 Z-0.034713
G01 X27.452066 Y-302.287972 Z-0.056586
G01 X27.556968 Y-302.151913 Z-0.073829
G01 X27.397851 Y-302.109269 Z-0.058166
G01 X27.317869 Y-302.071790 Z-0.065363
G01 X27.333928 Y-301.988026 Z-0.047526
G01 X27.661165 Y-301.609623 Z-0.046482
G01 X27.846810 Y-301.414946 Z-0.059013
G01 X28.001412 Y-301.266356 Z-0.059634
G01 X28.011318 Y-301.265057 Z-0.058335
G01 X28.122090 Y-301.281455 Z-0.074732
G01 X28.112861 Y-301.176299 Z-0.044196
G01 X28.098637 Y-301.034087 Z-0.053848
G01 X28.098694 Y-300.905478 Z-0.075353
G01 X28.017865 Y-300.879401 Z0.000000
G01 X28.098694 Y-300.905478 Z-0.075353
G01 X28.429627 Y-300.571355 Z-0.070189
G01 X28.772584 Y-300.225718 Z-0.065250
G01 X28.887533 Y-300.156940 Z-0.065842
G01 X29.000281 Y-300.181663 Z-0.048542
G01 X29.018174 Y-300.207655 Z-0.066435
G01 X29.017186 Y-300.311739 Z-0.065447
G01 X28.900120 Y-300.661215 Z-0.109559
G01 X28.906894 Y-300.948602 Z-0.044902
G01 X29.347894 Y-300.558683 Z-0.048853
G01 X29.577030 Y-300.439642 Z-0.113143
G01 X29.848020 Y-300.103177 Z-0.052634
G01 X30.069423 Y-299.939968 Z-0.090114
G01 X30.405070 Y-299.549062 Z-0.044140
G01 X30.408005 Y-299.284450 Z-0.047075
G01 X30.403433 Y-299.001268 Z-0.042503
G01 X30.135746 Y-298.960318 Z-0.047639
G01 X29.719976 Y-298.919001 Z-0.033500
G01 X28.351988 Y-298.891597 Z-0.078994
G01 X28.175317 Y-298.915473 Z-0.104733
G01 X28.142692 Y-299.033780 Z0.000000
G01 X28.175317 Y-298.915473 Z-0.104733
G01 X28.013688 Y-299.021080 Z-0.047780
G01 X27.092007 Y-299.806110 Z-0.044817
G01 X26.112527 Y-300.674112 Z-0.061242
G01 X25.704603 Y-300.968752 Z-0.117574
G01 X25.678751 Y-300.981198 Z-0.120904
G01 X25.374685 Y-301.080738 Z-0.115711
G01 X25.057947 Y-301.232743 Z-0.064206
G01 X25.066696 Y-301.297231 Z0.000000
G01 X25.057947 Y-301.232743 Z-0.064206
G01 X23.860450 Y-301.209262 Z-0.051477
G01 X22.745615 Y-301.198594 Z-0.028420
G01 X22.625191 Y-301.171247 Z-0.058815
G01 X22.480355 Y-301.209685 Z-0.097254
G01 X22.409461 Y-301.228679 Z-0.115852
G01 X22.193645 Y-301.321022 Z-0.115937
G01 X22.080926 Y-301.366601 Z-0.113538
G01 X22.030775 Y-301.507261 Z0.000000
G01 X22.080926 Y-301.366601 Z-0.113538
G01 X21.792212 Y-301.505567 Z-0.086614
G01 X21.561496 Y-301.580836 Z-0.106313
G01 X21.496472 Y-301.612501 Z-0.109869
G01 X21.441664 Y-301.639199 Z-0.112889
G01 X21.208323 Y-301.732333 Z-0.118279
G01 X20.981134 Y-301.832860 Z-0.107752
G01 X20.822920 Y-301.929098 Z-0.076059
G01 X20.540980 Y-302.063633 Z-0.053904
G01 X20.454479 Y-302.066794 Z-0.082578
G01 X20.416633 Y-302.170370 Z0.000000
G01 X20.454479 Y-302.066794 Z-0.082578
G01 X20.273518 Y-302.107406 Z-0.110942
G01 X19.963920 Y-302.255488 Z-0.105692
G01 X19.686439 Y-302.390362 Z-0.105100
G01 X19.399335 Y-302.502404 Z-0.129286
G01 X19.118129 Y-302.657119 Z-0.111252
G01 X19.043170 Y-302.696714 Z-0.106793
G01 X18.963809 Y-302.733939 Z-0.106341
G01 X18.849284 Y-302.790356 Z-0.108684
G01 X18.789678 Y-302.821823 Z-0.111845
G01 X18.789678 Y-302.821823 Z-0.111845
G01 X18.641907 Y-302.899886 Z-0.119662
G01 X17.615013 Y-303.315402 Z-0.096294
G01 X17.007784 Y-303.524952 Z-0.086473
G01 X16.179998 Y-303.885604 Z-0.001891
G01 X16.179998 Y-303.885604 Z-0.001891
G01 X16.046817 Y-303.929856 Z-0.045946
G01 X14.881663 Y-304.727811 Z-0.101741
G01 X13.594137 Y-305.672945 Z-0.112578
G01 X13.158357 Y-305.999363 Z-0.110998
G01 X12.559849 Y-306.495341 Z-0.075212
G01 X12.219319 Y-306.715841 Z-0.107244
G01 X11.940258 Y-307.015448 Z-0.039144
G01 X11.541901 Y-307.285761 Z-0.056529
G01 X11.479784 Y-307.324989 Z-0.058138
G01 X11.418937 Y-307.435084 Z0.000000
G01 X11.479784 Y-307.324989 Z-0.058138
G01 X11.206903 Y-307.455715 Z-0.099963
G01 X10.971079 Y-307.631201 Z-0.094827
G01 X10.836374 Y-307.735764 Z-0.095335
G01 X10.318468 Y-308.097657 Z-0.128834
G01 X9.476542 Y-308.577915 Z-0.118674
G01 X8.415951 Y-309.070365 Z-0.105495
G01 X8.089985 Y-309.203997 Z-0.117630
G01 X6.998434 Y-309.640002 Z-0.060706
G01 X6.906175 Y-309.632608 Z-0.068749
G01 X6.895338 Y-309.627189 Z-0.074168
G01 X6.869938 Y-309.658741 Z-0.035701
G01 X6.869938 Y-309.658741 Z-0.035701
G01 X6.835479 Y-309.674828 Z0.000000
G01 X6.869938 Y-309.658741 Z-0.035701
G01 X6.873381 Y-309.656173 Z-0.039342
G00 Z2.000000

G00 Z2.000000
G00 X7.058152 Y-309.501177

G01 Z-0.057743 F100.0(Penetrate)
G01 X7.035715 Y-309.496802 Z-0.048853 F400.000000
G01 X6.992705 Y-309.480575 Z-0.024158
G01 X6.990729 Y-309.446934 Z-0.034290
G01 X6.990729 Y-309.446934 Z-0.034290
G01 X6.972667 Y-309.252906 Z-0.086473
G01 X6.885601 Y-309.409539 Z-0.049671
G01 X6.872450 Y-309.487207 Z-0.060085
G01 X6.869091 Y-309.569390 Z-0.060537
G01 X6.922290 Y-309.640623 Z-0.060621
G01 X7.000071 Y-309.639720 Z-0.060424
G01 X7.066139 Y-309.628657 Z-0.049361
G01 X7.181822 Y-309.549493 Z-0.086558
G01 X7.058152 Y-309.501177 Z-0.057743
G00 Z2.000000

G00 Z2.000000
G00 X7.540780 Y-309.400423

G01 Z-0.110688 F100.0(Penetrate)
G01 X7.725664 Y-309.334242 Z-0.113058 F400.000000
G01 X8.002524 Y-309.235239 Z-0.116558
G01 X8.156984 Y-309.176537 Z-0.115118
G01 X8.420298 Y-309.068587 Z-0.105325
G01 X8.433816 Y-309.062321 Z-0.105495
G01 X9.723882 Y-308.450040 Z-0.110095
G01 X9.909048 Y-308.339409 Z-0.116755
G01 X9.909048 Y-308.339409 Z-0.116755
G01 X9.952454 Y-308.313416 Z-0.118336
G01 X10.117356 Y-308.216050 Z-0.123218
G01 X10.275768 Y-308.122803 Z-0.127649
G01 X10.833128 Y-307.738276 Z-0.095335
G01 X11.427178 Y-307.217971 Z-0.046284
G01 X11.513735 Y-307.080218 Z-0.064629
G01 X11.603369 Y-306.889944 Z-0.063020
G01 X11.609889 Y-306.607891 Z-0.074394
G01 X11.541111 Y-306.321435 Z-0.103350
G01 X11.270037 Y-305.658072 Z-0.064798
G01 X10.980251 Y-305.348869 Z-0.042982
G01 X10.529231 Y-305.130147 Z-0.108063
G01 X9.991626 Y-304.998095 Z-0.063641
G01 X9.523053 Y-305.101530 Z-0.078768
G01 X9.164235 Y-305.527968 Z-0.049332
G01 X8.996765 Y-305.697555 Z-0.055711
G01 X8.550007 Y-306.213711 Z-0.101402
G01 X8.394305 Y-306.457946 Z-0.103830
G01 X8.207361 Y-306.751175 Z-0.106708
G01 X8.050248 Y-307.090068 Z-0.056698
G01 X7.817358 Y-307.353042 Z-0.108232
G01 X7.582013 Y-307.724023 Z-0.102842
G01 X7.318643 Y-308.303736 Z-0.101882
G01 X7.123063 Y-308.862677 Z-0.112889
G01 X7.041275 Y-309.115746 Z-0.111421
G01 X6.998264 Y-309.339746 Z-0.079474
G01 X6.997333 Y-309.352982 Z-0.073914
G01 X7.043589 Y-309.378495 Z-0.021082
G01 X6.988528 Y-309.478289 Z-0.021082
G01 X7.208633 Y-309.519352 Z-0.106341
G01 X7.540780 Y-309.400423 Z-0.110688
G00 Z2.000000

G00 Z2.000000
G00 X8.001198 Y-307.169146

G01 Z-0.054610 F100.0(Penetrate)
G01 X8.043249 Y-307.104771 Z-0.054525 F400.000000
G01 X8.170559 Y-306.833612 Z-0.093359
G01 X7.950031 Y-307.011638 Z-0.057940
G01 X7.898440 Y-307.054395 Z-0.048683
G01 X7.745645 Y-307.298207 Z-0.053396
G01 X7.869400 Y-307.324848 Z-0.080038
G01 X7.907020 Y-307.304444 Z-0.059634
G01 X7.961658 Y-307.229655 Z-0.054723
G01 X8.001198 Y-307.169146 Z-0.054610
G00 Z2.000000

G00 Z2.000000
G00 X9.492121 Y-305.097917

G01 Z-0.103830 F100.0(Penetrate)
G01 X9.407059 Y-305.079686 Z-0.056473 F400.000000
G01 X9.322336 Y-305.164973 Z-0.053763
G01 X9.273371 Y-305.227853 Z-0.061553
G01 X9.273371 Y-305.227853 Z-0.061553
G01 X8.908514 Y-305.796925 Z-0.066294
G01 X8.908514 Y-305.796925 Z-0.066294
G01 X9.283418 Y-305.402605 Z-0.041430
G01 X9.371810 Y-305.317740 Z-0.041430
G01 X9.347934 Y-305.283253 Z0.000000
G01 X9.371810 Y-305.317740 Z-0.041430
G01 X9.429806 Y-305.259010 Z-0.039229
G01 X9.493391 Y-305.176714 Z-0.049050
G01 X9.492121 Y-305.097917 Z-0.103830
G00 Z2.000000

G00 Z2.000000
G00 X10.097488 Y-304.472880

G01 Z-0.038185 F100.0(Penetrate)
G01 X10.150151 Y-304.415165 Z-0.037056 F400.000000
G01 X10.256577 Y-304.294911 Z-0.051167
G01 X10.144055 Y-304.278316 Z-0.067762
G01 X10.112756 Y-304.292342 Z-0.053735
G01 X10.047845 Y-304.356689 Z-0.048175
G01 X9.994985 Y-304.414403 Z-0.047188
G01 X9.995719 Y-304.415109 Z-0.046200
G01 X9.941842 Y-304.472457 Z-0.046200
G01 X9.837166 Y-304.601206 Z-0.053820
G01 X9.954966 Y-304.604762 Z-0.057376
G01 X9.982906 Y-304.592175 Z-0.044789
G01 X10.044995 Y-304.530397 Z-0.039314
G01 X10.097488 Y-304.472880 Z-0.038185
G00 Z2.000000

G00 Z2.000000
G00 X10.461216 Y-304.133564

G01 Z-0.069483 F100.0(Penetrate)
G01 X10.454132 Y-304.126678 Z-0.062428 F400.000000
G01 X10.465731 Y-304.084570 Z-0.051647
G01 X10.499880 Y-304.043168 Z-0.050094
G01 X10.542298 Y-303.991719 Z-0.048147
G01 X10.684341 Y-303.744747 Z-0.083199
G01 X10.454499 Y-303.906996 Z-0.058928
G01 X10.424160 Y-303.932283 Z-0.052352
G01 X10.357640 Y-304.007806 Z-0.051054
G01 X10.306135 Y-304.073620 Z-0.054836
G01 X10.230386 Y-304.170451 Z-0.060367
G01 X10.212973 Y-304.297281 Z-0.048796
G01 X10.344489 Y-304.241458 Z-0.043801
G01 X10.385157 Y-304.219642 Z-0.037987
G01 X10.458055 Y-304.183376 Z-0.066322
G01 X10.461216 Y-304.133564 Z-0.069483
G00 Z2.000000

G00 Z2.000000
G00 X10.857287 Y-304.087082

G01 Z-0.033443 F100.0(Penetrate)
G01 X10.822093 Y-304.080647 Z-0.026106 F400.000000
G01 X10.766693 Y-304.081381 Z-0.025372
G01 X10.732008 Y-304.088663 Z-0.031722
G01 X10.534791 Y-304.130036 Z-0.067903
G01 X10.730456 Y-304.182755 Z-0.044394
G01 X10.794323 Y-304.182643 Z-0.044281
G01 X10.858641 Y-304.185013 Z-0.046651
G01 X11.138860 Y-304.130375 Z-0.099681
G01 X10.857287 Y-304.087082 Z-0.033443
G00 Z2.000000

G00 Z2.000000
G00 X11.168662 Y-304.010713

G01 Z-0.089521 F100.0(Penetrate)
G01 X11.168662 Y-304.010713 Z-0.089521 F400.000000
G01 X11.226236 Y-303.955087 Z-0.089577
G01 X11.355804 Y-303.835283 Z-0.085908
G01 X11.434092 Y-303.716553 Z-0.045522
G01 X11.427347 Y-303.708537 Z-0.035052
G01 X11.532701 Y-303.619807 Z-0.035052
G01 X11.813089 Y-303.404499 Z-0.055795
G01 X12.044765 Y-303.223510 Z-0.072418
G01 X12.454410 Y-302.828879 Z-0.045748
G01 X12.370223 Y-302.623393 Z-0.059323
G01 X12.341465 Y-302.500429 Z-0.086953
G01 X12.335708 Y-302.437663 Z-0.092117
G01 X12.343045 Y-302.339703 Z-0.083876
G01 X12.350101 Y-302.245272 Z-0.075946
G01 X12.352048 Y-302.084490 Z-0.087461
G01 X12.250985 Y-302.091799 Z-0.080151
G01 X12.174023 Y-302.126005 Z-0.045946
G01 X12.048434 Y-302.206635 Z-0.083622
G01 X11.039094 Y-303.366625 Z-0.039398
G01 X10.704661 Y-303.737465 Z-0.075918
G01 X10.446315 Y-304.113611 Z-0.049163
G01 X10.549551 Y-304.087195 Z-0.025485
G01 X10.774765 Y-304.081268 Z-0.025485
G01 X10.966478 Y-304.107007 Z-0.056219
G01 X11.068163 Y-304.110394 Z-0.091496
G01 X11.168662 Y-304.010713 Z-0.089521
G00 Z2.000000

G00 Z2.000000
G00 X10.753062 Y-303.724398

G01 Z-0.045748 F100.0(Penetrate)
G01 X10.753062 Y-303.724398 Z-0.045748 F400.000000
G01 X10.834991 Y-303.618988 Z-0.045156
G01 X10.909639 Y-303.523851 Z-0.045156
G01 X10.853223 Y-303.444857 Z-0.060593
G01 X10.755122 Y-303.538696 Z-0.047244
G01 X10.760682 Y-303.545836 Z-0.038213
G01 X10.688574 Y-303.602365 Z-0.038213
G01 X10.609185 Y-303.708791 Z-0.047244
G01 X10.729017 Y-303.725555 Z-0.064008
G01 X10.755404 Y-303.705038 Z-0.043490
G01 X10.781990 Y-303.641284 Z-0.017216
G01 X10.753034 Y-303.724398 Z-0.045748
G01 X10.799459 Y-303.591077 Z0.000000
G01 X10.753034 Y-303.724398 Z-0.045748
G01 X10.753062 Y-303.724398 Z-0.045748
G00 Z2.000000

G00 Z2.000000
G00 X11.200328 Y-303.201328

G01 Z-0.032879 F100.0(Penetrate)
G01 X11.286264 Y-303.110763 Z-0.031101 F400.000000
G01 X11.399605 Y-302.982859 Z-0.034459
G01 X11.313922 Y-302.997196 Z-0.020151
G01 X11.295070 Y-302.997196 Z-0.020151
G01 X11.195191 Y-303.060922 Z-0.040076
G01 X11.101268 Y-303.143895 Z-0.049304
G01 X11.015924 Y-303.235787 Z-0.046143
G01 X10.885678 Y-303.386832 Z-0.047442
G01 X10.999414 Y-303.393577 Z-0.054187
G01 X11.026338 Y-303.380398 Z-0.041007
G01 X11.114391 Y-303.291893 Z-0.034685
G01 X11.200328 Y-303.201328 Z-0.032879
G00 Z2.000000

G00 Z2.000000
G00 X11.491525 Y-302.873639

G01 Z-0.040922 F100.0(Penetrate)
G01 X12.322923 Y-301.971855 Z-0.053086 F400.000000
G01 X12.322923 Y-301.971855 Z-0.053086
G01 X11.546247 Y-302.678680 Z-0.049445
G01 X11.415409 Y-302.796931 Z-0.049445
G01 X11.302464 Y-302.920771 Z-0.033302
G01 X11.234081 Y-303.007751 Z-0.030706
G01 X11.330319 Y-302.997196 Z-0.020151
G01 X11.345587 Y-302.997196 Z-0.020151
G01 X11.425428 Y-302.946058 Z-0.040442
G01 X11.491525 Y-302.873639 Z-0.040922
G00 Z2.000000

G00 Z2.000000
G00 X11.782947 Y-302.492273

G01 Z-0.029041 F100.0(Penetrate)
G01 X11.820652 Y-302.452959 Z-0.032935 F400.000000
G01 X11.883729 Y-302.335809 Z-0.077555
G01 X11.769824 Y-302.363523 Z-0.049840
G01 X11.720802 Y-302.346448 Z-0.066915
G01 X11.675646 Y-302.411698 Z-0.050320
G01 X11.658120 Y-302.455471 Z-0.050998
G01 X11.642852 Y-302.493655 Z-0.051590
G01 X11.614827 Y-302.597683 Z-0.063556
G01 X11.696531 Y-302.566243 Z-0.032117
G01 X11.714198 Y-302.559441 Z-0.025315
G01 X11.751846 Y-302.524728 Z-0.025795
G01 X11.782947 Y-302.492273 Z-0.029041
G00 Z2.000000

G00 Z2.000000
G00 X11.974209 Y-302.071084

G01 Z-0.053820 F100.0(Penetrate)
G01 X11.995940 Y-301.925260 Z-0.075551 F400.000000
G01 X11.861490 Y-302.012325 Z-0.059605
G01 X11.833747 Y-302.060275 Z-0.056727
G01 X11.835610 Y-302.061573 Z-0.054441
G01 X11.811141 Y-302.099476 Z-0.054441
G01 X11.786673 Y-302.159222 Z-0.055654
G01 X11.780153 Y-302.191762 Z-0.062174
G01 X11.775751 Y-302.322883 Z-0.066576
G01 X11.883277 Y-302.230624 Z-0.033726
G01 X11.910709 Y-302.190746 Z-0.034967
G01 X11.910709 Y-302.190746 Z-0.034967
G01 X11.935178 Y-302.155017 Z-0.036124
G01 X11.964360 Y-302.101423 Z-0.043970
G01 X11.974209 Y-302.071084 Z-0.053820
G00 Z2.000000

G00 Z2.000000
G00 X12.135725 Y-301.830433

G01 Z-0.004770 F100.0(Penetrate)
G01 X12.135725 Y-301.830433 Z-0.004770 F400.000000
G01 X12.212320 Y-301.769868 Z-0.038015
G01 X12.127597 Y-301.652831 Z-0.128891
G01 X12.058622 Y-301.705437 Z-0.095419
G01 X11.957897 Y-301.786350 Z-0.042559
G01 X11.906081 Y-301.896135 Z-0.046426
G01 X12.060146 Y-301.921704 Z-0.071995
G01 X12.100504 Y-301.888910 Z-0.039201
G01 X12.151812 Y-301.860067 Z-0.034008
G01 X12.108180 Y-301.925260 Z-0.031044
G01 X12.140720 Y-301.813189 Z0.000000
G01 X12.108180 Y-301.925260 Z-0.031044
G01 X12.135725 Y-301.830433 Z-0.004770
G00 Z2.000000

G00 Z2.000000
G00 X12.449076 Y-301.805287

G01 Z-0.045240 F100.0(Penetrate)
G01 X12.569557 Y-301.706255 Z-0.065560 F400.000000
G01 X12.665400 Y-301.583150 Z-0.059351
G01 X12.674149 Y-301.549425 Z-0.068128
G01 X12.641749 Y-301.362339 Z-0.035729
G01 X12.179159 Y-301.620545 Z-0.152569
G01 X12.003250 Y-301.981591 Z-0.082889
G01 X11.767340 Y-302.364313 Z-0.049050
G01 X12.142724 Y-302.117594 Z-0.065786
G01 X12.209893 Y-302.063633 Z-0.060791
G01 X12.344654 Y-301.919277 Z-0.046821
G01 X12.449076 Y-301.805287 Z-0.045240
G00 Z2.000000

G00 Z2.000000
G00 X12.485878 Y-302.096597

G01 Z-0.001214 F100.0(Penetrate)
G01 X12.484636 Y-301.945298 Z0.000000 F400.000000
G01 X12.485878 Y-302.096597 Z-0.001214
G01 X12.459603 Y-301.997057 Z-0.025852
G01 X12.536001 Y-302.005213 Z-0.051364
G01 X12.577262 Y-301.968299 Z-0.049389
G01 X12.615813 Y-301.931920 Z-0.046087
G01 X12.663565 Y-301.863227 Z-0.058194
G01 X12.682813 Y-301.811242 Z-0.079671
G01 X12.656284 Y-301.678880 Z-0.058872
G01 X12.547318 Y-301.721439 Z-0.059690
G01 X12.547092 Y-301.821628 Z-0.020320
G01 X12.557309 Y-301.826002 Z-0.009200
G01 X12.538400 Y-301.870057 Z-0.009200
G01 X12.538400 Y-301.870057 Z-0.009200
G01 X12.541476 Y-301.852983 Z-0.013123
G01 X12.541476 Y-301.852983 Z-0.013123
G01 X12.556039 Y-301.771900 Z-0.031750
G01 X12.485737 Y-301.769191 Z-0.047357
G01 X12.416847 Y-301.837009 Z-0.043349
G01 X12.369264 Y-301.883830 Z-0.040584
G01 X12.312876 Y-301.961779 Z-0.056332
G01 X12.318097 Y-302.025110 Z-0.085203
G01 X12.370901 Y-302.089033 Z-0.073801
G01 X12.451193 Y-302.027142 Z-0.034883
G01 X12.465756 Y-301.975185 Z-0.019360
G01 X12.457402 Y-301.969879 Z-0.009454
G01 X12.475125 Y-301.941883 Z-0.009454
G01 X12.475125 Y-301.941883 Z-0.009454
G01 X12.484636 Y-301.946031 Z0.000000
G01 X12.485878 Y-302.096597 Z-0.001214
G00 Z2.000000

G00 Z2.000000
G00 X12.631731 Y-301.366178

G01 Z-0.039568 F100.0(Penetrate)
G01 X12.734488 Y-301.409894 Z-0.083284 F400.000000
G01 X12.842635 Y-301.231021 Z-0.075805
G01 X13.068977 Y-300.797923 Z-0.076059
G01 X13.168150 Y-300.611544 Z-0.077780
G01 X13.281829 Y-300.419181 Z-0.082776
G01 X13.316684 Y-300.366151 Z-0.081139
G01 X13.315075 Y-300.365023 Z-0.079192
G01 X13.359158 Y-300.301551 Z-0.079192
G01 X13.418989 Y-300.179998 Z-0.092541
G01 X13.477043 Y-300.100411 Z-0.138825
G01 X13.516723 Y-299.581433 Z-0.105128
G01 X13.322385 Y-299.912677 Z-0.047442
G01 X13.226542 Y-300.030871 Z-0.047442
G01 X13.068554 Y-300.183892 Z-0.073801
G01 X12.595239 Y-300.843671 Z-0.091327
G01 X12.636557 Y-300.902628 Z-0.050010
G01 X12.582906 Y-300.887501 Z-0.103660
G01 X12.527083 Y-300.978715 Z-0.103547
G01 X12.442980 Y-301.109271 Z-0.099794
G01 X12.356197 Y-301.243072 Z-0.096379
G01 X12.268285 Y-301.383817 Z-0.096181
G01 X12.257250 Y-301.422425 Z-0.107244
G01 X12.241925 Y-301.604514 Z-0.122541
G01 X12.444166 Y-301.486150 Z-0.075551
G01 X12.505859 Y-301.443309 Z-0.066209
G01 X12.559707 Y-301.405999 Z-0.058025
G01 X12.614854 Y-301.372697 Z-0.045974
G01 X12.631731 Y-301.366178 Z-0.039568
G00 Z2.000000

G00 Z2.000000
G00 X13.075892 Y-301.474212

G01 Z-0.062794 F100.0(Penetrate)
G01 X13.013069 Y-301.467185 Z0.000000 F400.000000
G01 X13.075892 Y-301.474212 Z-0.062794
G01 X13.117068 Y-301.349752 Z-0.075438
G01 X13.254200 Y-301.026439 Z-0.080716
G01 X13.454747 Y-300.583378 Z-0.076398
G01 X13.533374 Y-300.409642 Z-0.074704
G01 X13.639574 Y-300.161315 Z-0.077922
G01 X13.514493 Y-300.067899 Z-0.171337
G01 X13.434483 Y-300.137354 Z-0.101882
G01 X13.127087 Y-300.683539 Z-0.074648
G01 X13.032655 Y-300.869438 Z-0.076962
G01 X12.988459 Y-300.956419 Z-0.078006
G01 X12.885589 Y-301.151322 Z-0.077018
G01 X12.800330 Y-301.300984 Z-0.078712
G01 X12.593885 Y-301.694007 Z-0.067931
G01 X12.858665 Y-301.682069 Z-0.081449
G01 X12.992636 Y-301.660733 Z-0.072926
G01 X13.075045 Y-301.620065 Z-0.094262
G01 X13.075892 Y-301.474241 Z-0.062794
G01 X13.075892 Y-301.474212 Z-0.062794
G00 Z2.000000

G00 Z2.000000
G00 X13.784467 Y-301.756858

G01 Z-0.033528 F100.0(Penetrate)
G01 X13.784467 Y-301.756858 Z-0.033528 F400.000000
G01 X13.919849 Y-301.591673 Z-0.038156
G01 X13.871900 Y-301.525436 Z-0.050687
G01 X13.778004 Y-301.610356 Z-0.041797
G01 X13.781955 Y-301.615380 Z-0.035391
G01 X13.710215 Y-301.671655 Z-0.035391
G01 X13.626733 Y-301.777178 Z-0.048288
G01 X13.748540 Y-301.776755 Z-0.047865
G01 X13.772219 Y-301.765861 Z-0.036971
G01 X13.801401 Y-301.708541 Z-0.017074
G01 X13.784439 Y-301.756858 Z-0.033556
G01 X13.818983 Y-301.658447 Z0.000000
G01 X13.784439 Y-301.756858 Z-0.033556
G01 X13.784467 Y-301.756858 Z-0.033528
G00 Z2.000000

G00 Z2.000000
G00 X14.393164 Y-302.445762

G01 Z-0.048288 F100.0(Penetrate)
G01 X14.393164 Y-302.445762 Z-0.048288 F400.000000
G01 X14.458950 Y-302.416552 Z-0.077498
G01 X14.664747 Y-302.201273 Z-0.131572
G01 X14.410097 Y-302.192553 Z-0.140293
G01 X14.352722 Y-302.208583 Z-0.124262
G01 X14.303333 Y-302.314021 Z-0.076849
G01 X14.276917 Y-302.377013 Z-0.054187
G01 X14.228770 Y-302.420362 Z-0.060791
G01 X14.057461 Y-302.599715 Z-0.105833
G01 X14.264358 Y-302.548011 Z-0.054130
G01 X14.291479 Y-302.536948 Z-0.043067
G01 X14.345892 Y-302.486882 Z-0.040838
G01 X14.393164 Y-302.445762 Z-0.048288
G00 Z2.000000

G00 Z2.000000
G00 X14.623768 Y-302.717712

G01 Z-0.033500 F100.0(Penetrate)
G01 X14.667541 Y-302.672979 Z-0.035927 F400.000000
G01 X14.728867 Y-302.578971 Z-0.035729
G01 X14.651680 Y-302.568642 Z-0.046059
G01 X14.627324 Y-302.579056 Z-0.035645
G01 X14.576129 Y-302.627824 Z-0.032286
G01 X14.534106 Y-302.673008 Z-0.033105
G01 X14.534106 Y-302.673008 Z-0.033105
G01 X14.491631 Y-302.718728 Z-0.033951
G01 X14.405017 Y-302.824335 Z-0.048570
G01 X14.505940 Y-302.817675 Z-0.041910
G01 X14.529167 Y-302.808418 Z-0.032653
G01 X14.580644 Y-302.761795 Z-0.031101
G01 X14.623768 Y-302.717712 Z-0.033500
G00 Z2.000000

G00 Z2.000000
G00 X14.330454 Y-302.935954

G01 Z-0.076595 F100.0(Penetrate)
G01 X14.253859 Y-302.903611 Z0.000000 F400.000000
G01 X14.330454 Y-302.935954 Z-0.076595
G01 X14.480032 Y-302.733319 Z-0.035645
G01 X14.675161 Y-302.558595 Z-0.056106
G01 X14.694211 Y-302.521144 Z-0.075156
G01 X14.697343 Y-302.447145 Z-0.078288
G01 X14.598029 Y-302.341425 Z-0.152626
G01 X14.524793 Y-302.380992 Z-0.113058
G01 X14.379730 Y-302.451717 Z-0.042333
G01 X13.632462 Y-303.151911 Z-0.063923
G01 X13.722717 Y-303.279249 Z-0.090142
G01 X13.757487 Y-303.307556 Z-0.085485
G01 X13.817741 Y-303.351667 Z-0.092682
G01 X13.859284 Y-303.355026 Z-0.096040
G01 X13.905287 Y-303.336710 Z-0.077724
G01 X14.079418 Y-303.127357 Z-0.038693
G01 X14.330398 Y-302.936067 Z-0.076539
G01 X14.330398 Y-302.936067 Z-0.076539
G01 X14.330454 Y-302.935954 Z-0.076595
G00 Z2.000000

G00 Z2.000000
G00 X14.215336 Y-303.115052

G01 Z-0.025626 F100.0(Penetrate)
G01 X14.258657 Y-303.070743 Z-0.028025 F400.000000
G01 X14.338949 Y-302.974731 Z-0.042587
G01 X14.249061 Y-302.971825 Z-0.045494
G01 X14.224734 Y-302.981731 Z-0.035588
G01 X14.172636 Y-303.029539 Z-0.033556
G01 X14.129738 Y-303.073989 Z-0.035504
G01 X14.086219 Y-303.119116 Z-0.037507
G01 X13.986849 Y-303.235307 Z-0.056952
G01 X14.103322 Y-303.211149 Z-0.032794
G01 X14.123614 Y-303.203077 Z-0.024723
G01 X14.172551 Y-303.158769 Z-0.023255
G01 X14.215336 Y-303.115052 Z-0.025626
G00 Z2.000000

G00 Z2.000000
G00 X14.166596 Y-303.447510

G01 Z-0.087856 F100.0(Penetrate)
G01 X14.300200 Y-303.347829 Z-0.087630 F400.000000
G01 X14.502299 Y-303.179201 Z-0.086388
G01 X14.615781 Y-303.074441 Z-0.086529
G01 X14.726581 Y-302.972050 Z-0.086586
G01 X14.863459 Y-302.848917 Z-0.084159
G01 X14.920637 Y-302.800177 Z-0.081167
G01 X15.041203 Y-302.697448 Z-0.074845
G01 X15.064684 Y-302.643290 Z-0.083820
G01 X15.046537 Y-302.350174 Z-0.075438
G01 X15.000083 Y-302.058525 Z-0.038693
G01 X15.040243 Y-301.809944 Z-0.162588
G01 X14.791859 Y-301.972476 Z-0.162475
G01 X14.684982 Y-302.042382 Z-0.162419
G01 X14.654276 Y-302.189843 Z-0.143002
G01 X14.656195 Y-302.387483 Z-0.124347
G01 X14.752038 Y-302.631126 Z-0.008213
G01 X14.752038 Y-302.631126 Z-0.008213
G01 X14.384895 Y-302.883715 Z-0.077103
G01 X13.479159 Y-303.722733 Z-0.090226
G01 X13.499846 Y-303.839122 Z-0.004346
G01 X14.166596 Y-303.447510 Z-0.087856
G00 Z2.000000

G00 Z2.000000
G00 X13.623939 Y-303.586646

G01 Z-0.089549 F100.0(Penetrate)
G01 X13.749218 Y-303.468874 Z-0.088985 F400.000000
G01 X13.815596 Y-303.343765 Z-0.086981
G01 X13.709565 Y-303.268553 Z-0.091892
G01 X13.602857 Y-303.206238 Z-0.085626
G01 X13.467052 Y-303.261300 Z-0.123190
G01 X13.281406 Y-303.510051 Z-0.097762
G01 X13.179411 Y-303.751492 Z-0.014393
G01 X13.426638 Y-303.748895 Z-0.073491
G01 X13.623939 Y-303.586646 Z-0.089549
G00 Z2.000000

G00 Z2.000000
G00 X13.681371 Y-303.101619

G01 Z-0.065673 F100.0(Penetrate)
G01 X13.726471 Y-303.054770 Z-0.067677 F400.000000
G01 X13.798804 Y-302.921758 Z-0.055287
G01 X13.685407 Y-302.936801 Z-0.040245
G01 X13.663337 Y-302.947525 Z-0.029520
G01 X13.614457 Y-302.994826 Z-0.025767
G01 X13.556686 Y-303.025221 Z-0.048204
G01 X13.556686 Y-303.025221 Z-0.048204
G01 X13.490900 Y-303.054431 Z-0.077414
G01 X13.344793 Y-303.237452 Z-0.099342
G01 X13.539668 Y-303.237057 Z-0.098947
G01 X13.582340 Y-303.222805 Z-0.084695
G01 X13.637260 Y-303.147508 Z-0.063726
G01 X13.681371 Y-303.101619 Z-0.065673
G00 Z2.000000

G00 Z2.000000
G00 X13.632039 Y-302.980404

G01 Z-0.025146 F100.0(Penetrate)
G01 X13.632039 Y-302.980404 Z-0.025146 F400.000000
G01 X13.791579 Y-302.837515 Z-0.062540
G01 X13.709114 Y-302.798314 Z-0.032314
G01 X13.624983 Y-302.868701 Z-0.028815
G01 X13.626705 Y-302.870930 Z-0.025964
G01 X13.556234 Y-302.926217 Z-0.025964
G01 X13.476450 Y-303.019464 Z-0.042446
G01 X13.587504 Y-303.011561 Z-0.034544
G01 X13.606639 Y-303.003067 Z-0.026049
G01 X13.640365 Y-302.956669 Z-0.017074
G01 X13.632039 Y-302.980376 Z-0.025174
G01 X13.657947 Y-302.906575 Z0.000000
G01 X13.632039 Y-302.980376 Z-0.025174
G01 X13.632039 Y-302.980404 Z-0.025146
G00 Z2.000000

G00 Z2.000000
G00 X13.352441 Y-302.767580

G01 Z-0.117292 F100.0(Penetrate)
G01 X13.634692 Y-302.701089 Z-0.118533 F400.000000
G01 X13.905597 Y-302.611709 Z-0.105071
G01 X13.952841 Y-302.580382 Z-0.100612
G01 X13.951599 Y-302.578012 Z-0.097959
G01 X13.981233 Y-302.561473 Z-0.097959
G01 X14.013745 Y-302.558200 Z-0.104535
G01 X14.027037 Y-302.563675 Z-0.110010
G01 X14.078769 Y-302.562207 Z-0.108543
G01 X14.155053 Y-302.498030 Z-0.079897
G01 X14.198261 Y-302.452507 Z-0.068721
G01 X14.300115 Y-302.356100 Z-0.050998
G01 X14.277312 Y-302.228310 Z-0.102249
G01 X14.148788 Y-302.277530 Z-0.078063
G01 X14.133266 Y-302.359967 Z0.000000
G01 X14.148788 Y-302.277530 Z-0.078063
G01 X14.067959 Y-302.288226 Z-0.082748
G01 X14.030932 Y-302.262995 Z-0.089408
G01 X13.893038 Y-302.142261 Z-0.094601
G01 X13.745267 Y-302.031319 Z-0.086021
G01 X13.622980 Y-301.941375 Z-0.110123
G01 X13.523581 Y-301.968920 Z-0.092625
G01 X13.466177 Y-302.032504 Z-0.034939
G01 X13.466177 Y-302.032504 Z-0.034939
G01 X13.497814 Y-301.997452 Z-0.066717
G01 X13.516243 Y-301.873783 Z-0.085654
G01 X13.385010 Y-301.793293 Z-0.075833
G01 X13.159712 Y-301.694148 Z-0.095927
G01 X13.159712 Y-301.694148 Z-0.095927
G01 X13.151781 Y-301.722088 Z-0.066915
G01 X12.964499 Y-301.657375 Z-0.066915
G01 X12.762174 Y-301.704647 Z-0.094657
G01 X12.609887 Y-301.937508 Z-0.046595
G01 X12.552087 Y-301.992062 Z-0.051534
G01 X12.504900 Y-302.070153 Z-0.020264
G01 X12.480855 Y-302.092815 Z-0.006378
G01 X12.391503 Y-302.067613 Z-0.058448
G01 X12.347617 Y-302.173559 Z-0.077752
G01 X12.342622 Y-302.345235 Z-0.084356
G01 X12.378577 Y-302.659179 Z-0.051308
G01 X12.495191 Y-302.735576 Z-0.010555
G01 X12.769257 Y-302.846687 Z-0.077414
G01 X12.802503 Y-302.850356 Z-0.075692
G01 X13.068780 Y-302.824617 Z-0.106482
G01 X13.352441 Y-302.767580 Z-0.117292
G00 Z2.000000

G00 Z2.000000
G00 X13.994977 Y-302.788832

G01 Z-0.070160 F100.0(Penetrate)
G01 X14.097057 Y-302.675011 Z-0.080236 F400.000000
G01 X13.995767 Y-302.553825 Z-0.094996
G01 X13.852596 Y-302.638520 Z-0.116671
G01 X13.852596 Y-302.638520 Z-0.116671
G01 X13.886999 Y-302.682406 Z-0.060904
G01 X13.845371 Y-302.715059 Z-0.060904
G01 X13.791099 Y-302.766310 Z-0.063020
G01 X13.776255 Y-302.800770 Z-0.077837
G01 X13.789858 Y-302.951815 Z-0.064262
G01 X13.930771 Y-302.860460 Z-0.063839
G01 X13.994977 Y-302.788832 Z-0.070160
G00 Z2.000000

G00 Z2.000000
G00 X14.929527 Y-301.882390

G01 Z-0.162532 F100.0(Penetrate)
G01 X15.415853 Y-301.398210 Z-0.023876 F400.000000
G01 X15.861736 Y-301.091942 Z-0.085908
G01 X15.848979 Y-300.936297 Z-0.094206
G01 X15.822366 Y-300.836531 Z-0.081280
G01 X15.596193 Y-300.324891 Z-0.086558
G01 X15.478393 Y-300.132161 Z-0.085400
G01 X15.343886 Y-299.916317 Z-0.081873
G01 X15.302033 Y-300.027061 Z-0.038749
G01 X14.976348 Y-300.388108 Z-0.038749
G01 X14.462534 Y-300.976655 Z-0.026077
G01 X13.639320 Y-301.831647 Z-0.095109
G01 X13.612537 Y-301.897094 Z-0.121130
G01 X13.633111 Y-301.958223 Z-0.099794
G01 X13.718992 Y-302.017518 Z-0.086275
G01 X13.770469 Y-302.048224 Z-0.089041
G01 X13.805577 Y-302.071818 Z-0.093218
G01 X13.878955 Y-302.129956 Z-0.095137
G01 X13.936190 Y-302.180050 Z-0.092964
G01 X13.952785 Y-302.162129 Z-0.068552
G01 X14.098214 Y-302.296890 Z-0.068552
G01 X14.318319 Y-302.233559 Z-0.127903
G01 X14.405667 Y-302.193851 Z-0.138994
G01 X14.685264 Y-302.042213 Z-0.162419
G01 X14.929527 Y-301.882390 Z-0.162532
G00 Z2.000000

G00 Z2.000000
G00 X15.517425 Y-301.626556

G01 Z-0.071967 F100.0(Penetrate)
G01 X15.517425 Y-301.626556 Z-0.071967 F400.000000
G01 X15.792365 Y-301.344277 Z-0.114074
G01 X15.644933 Y-301.258877 Z-0.069342
G01 X15.554339 Y-301.374927 Z-0.033867
G01 X15.561000 Y-301.383421 Z-0.023086
G01 X15.490867 Y-301.438398 Z-0.023086
G01 X15.403209 Y-301.532830 Z-0.045579
G01 X15.519993 Y-301.557016 Z-0.069765
G01 X15.546381 Y-301.530741 Z-0.043490
G01 X15.572966 Y-301.466987 Z-0.017216
G01 X15.517396 Y-301.626528 Z-0.071995
G01 X15.590435 Y-301.416780 Z0.000000
G01 X15.517396 Y-301.626528 Z-0.071995
G01 X15.517425 Y-301.626556 Z-0.071967
G00 Z2.000000

G00 Z2.000000
G00 X15.533850 Y-301.395444

G01 Z-0.030395 F100.0(Penetrate)
G01 X15.620238 Y-301.309084 Z-0.045071 F400.000000
G01 X15.560633 Y-301.275838 Z-0.026726
G01 X15.479917 Y-301.342584 Z-0.024017
G01 X15.480707 Y-301.343600 Z-0.022691
G01 X15.440886 Y-301.374842 Z-0.022691
G01 X15.398045 Y-301.412688 Z-0.026218
G01 X15.387631 Y-301.431935 Z-0.036632
G01 X15.297235 Y-301.697902 Z-0.127028
G01 X15.474019 Y-301.462105 Z-0.024412
G01 X15.533850 Y-301.395444 Z-0.030395
G00 Z2.000000

G00 Z2.000000
G00 X16.050034 Y-301.167917

G01 Z-0.083453 F100.0(Penetrate)
G01 X16.050034 Y-301.167917 Z-0.083453 F400.000000
G01 X16.306969 Y-300.915045 Z-0.094065
G01 X16.395644 Y-300.756549 Z-0.136821
G01 X16.179405 Y-300.768092 Z-0.069596
G01 X16.164673 Y-300.756832 Z-0.076680
G01 X16.122650 Y-300.671855 Z-0.081675
G01 X16.042809 Y-300.471618 Z-0.075890
G01 X15.892611 Y-300.067701 Z-0.074422
G01 X15.730728 Y-299.681283 Z-0.107696
G01 X15.628423 Y-299.538450 Z-0.143510
G01 X15.566418 Y-299.490275 Z-0.136934
G01 X15.387038 Y-299.376963 Z-0.139841
G01 X15.228768 Y-299.294187 Z-0.140603
G01 X14.935793 Y-299.213584 Z-0.077583
G01 X14.862867 Y-299.202860 Z-0.071233
G01 X14.551011 Y-299.193575 Z-0.080518
G01 X14.139531 Y-299.189144 Z-0.084949
G01 X13.916124 Y-299.331214 Z-0.023114
G01 X13.664890 Y-299.432222 Z-0.170914
G01 X13.641550 Y-299.592580 Z-0.097959
G01 X13.498548 Y-300.023195 Z-0.149239
G01 X13.854684 Y-299.675977 Z-0.101826
G01 X13.886632 Y-299.653173 Z-0.104084
G01 X13.997601 Y-299.570115 Z-0.037959
G01 X14.304405 Y-299.541498 Z-0.019868
G01 X14.686986 Y-299.552420 Z-0.043942
G01 X14.755707 Y-299.561592 Z-0.044958
G01 X14.922444 Y-299.665055 Z-0.074196
G01 X15.251684 Y-299.800042 Z-0.068100
G01 X15.347019 Y-299.884059 Z-0.066661
G01 X15.547566 Y-300.245332 Z-0.086078
G01 X15.628366 Y-300.385258 Z-0.090960
G01 X15.851971 Y-300.947557 Z-0.095673
G01 X15.855781 Y-301.003720 Z-0.091863
G01 X15.799816 Y-301.293957 Z-0.147828
G01 X16.034117 Y-301.182818 Z-0.082296
G01 X16.050006 Y-301.167917 Z-0.083481
G01 X16.123723 Y-300.970333 Z0.000000
G01 X16.050006 Y-301.167917 Z-0.083481
G01 X16.050034 Y-301.167917 Z-0.083453
G00 Z2.000000

G00 Z2.000000
G00 X16.850078 Y-300.355963

G01 Z-0.079304 F100.0(Penetrate)
G01 X16.927209 Y-300.276066 Z-0.079107 F400.000000
G01 X17.006147 Y-300.119574 Z-0.040273
G01 X16.909570 Y-300.119574 Z-0.040273
G01 X16.870200 Y-300.086074 Z-0.073773
G01 X16.780030 Y-300.173507 Z-0.069060
G01 X16.703351 Y-300.252755 Z-0.068975
G01 X16.625288 Y-300.331297 Z-0.070330
G01 X16.446867 Y-300.525720 Z-0.084046
G01 X16.636407 Y-300.545504 Z-0.103830
G01 X16.680011 Y-300.526482 Z-0.084808
G01 X16.773201 Y-300.435550 Z-0.079502
G01 X16.850078 Y-300.355963 Z-0.079304
G00 Z2.000000

G00 Z2.000000
G00 X17.268529 Y-299.929892

G01 Z-0.073942 F100.0(Penetrate)
G01 X17.378652 Y-299.817455 Z-0.073491 F400.000000
G01 X17.584279 Y-299.595967 Z-0.080716
G01 X17.394005 Y-299.647981 Z-0.028702
G01 X17.374193 Y-299.654302 Z-0.022380
G01 X17.261868 Y-299.743739 Z-0.032738
G01 X17.155640 Y-299.858321 Z-0.028025
G01 X17.035921 Y-299.960118 Z-0.041854
G01 X16.896955 Y-300.119574 Z-0.040273
G01 X16.997454 Y-300.119574 Z-0.040273
G01 X17.039562 Y-300.158775 Z-0.079474
G01 X17.158603 Y-300.042245 Z-0.074478
G01 X17.268529 Y-299.929892 Z-0.073942
G00 Z2.000000

G00 Z2.000000
G00 X17.176129 Y-299.837013

G01 Z-0.028363 F100.0(Penetrate)
G01 X17.229977 Y-299.781048 Z-0.029266 F400.000000
G01 X17.323054 Y-299.675554 Z-0.041402
G01 X17.229893 Y-299.667905 Z-0.049050
G01 X17.204521 Y-299.679025 Z-0.037931
G01 X17.143899 Y-299.738151 Z-0.033500
G01 X17.091039 Y-299.794905 Z-0.033133
G01 X17.091180 Y-299.795018 Z-0.032964
G01 X17.037840 Y-299.851801 Z-0.032964
G01 X16.946570 Y-299.960175 Z-0.041910
G01 X17.040775 Y-299.958086 Z-0.039822
G01 X17.063297 Y-299.948660 Z-0.030395
G01 X17.122563 Y-299.892724 Z-0.027460
G01 X17.176129 Y-299.837013 Z-0.028363
G00 Z2.000000

G00 Z2.000000
G00 X17.361436 Y-299.574631

G01 Z-0.082437 F100.0(Penetrate)
G01 X17.634458 Y-299.273020 Z-0.078514 F400.000000
G01 X17.885946 Y-298.977957 Z-0.086332
G01 X17.900311 Y-298.909066 Z-0.100669
G01 X17.878326 Y-298.893967 Z-0.078712
G01 X17.878326 Y-298.893967 Z-0.078712
G01 X17.890603 Y-298.902406 Z-0.090988
G01 X17.996606 Y-298.855331 Z-0.084977
G01 X18.001629 Y-298.739902 Z-0.096859
G01 X17.926869 Y-298.497219 Z-0.089803
G01 X17.817141 Y-298.151779 Z-0.076567
G01 X17.643179 Y-297.767788 Z-0.071318
G01 X17.477599 Y-297.611578 Z-0.033754
G01 X17.164107 Y-297.187087 Z-0.040442
G01 X16.337591 Y-297.031414 Z-0.021082
G01 X15.875819 Y-297.198376 Z-0.139305
G01 X15.574800 Y-297.454578 Z-0.093924
G01 X14.846639 Y-298.206389 Z-0.059182
G01 X14.463748 Y-298.579515 Z-0.125984
G01 X14.126577 Y-299.132615 Z-0.044902
G01 X14.603871 Y-299.195155 Z-0.078938
G01 X15.259332 Y-299.302597 Z-0.147179
G01 X15.649138 Y-299.554565 Z-0.145683
G01 X15.868565 Y-300.010269 Z-0.079361
G01 X15.924304 Y-300.158746 Z-0.072729
G01 X16.003157 Y-300.372191 Z-0.073011
G01 X16.047297 Y-300.482907 Z-0.076228
G01 X16.178079 Y-300.768431 Z-0.068919
G01 X16.554902 Y-300.408005 Z-0.075748
G01 X16.715909 Y-300.240111 Z-0.068749
G01 X17.050484 Y-299.838481 Z-0.032879
G01 X17.361436 Y-299.574631 Z-0.082437
G00 Z2.000000

G00 Z2.000000
G00 X18.332450 Y-298.533880

G01 Z-0.105523 F100.0(Penetrate)
G01 X18.332450 Y-298.533880 Z-0.105523 F400.000000
G01 X18.331660 Y-298.537380 Z-0.101939
G01 X18.327257 Y-298.536533 Z-0.101939
G01 X18.327257 Y-298.536533 Z-0.101939
G01 X18.308405 Y-298.517003 Z-0.087884
G01 X18.299430 Y-298.468771 Z-0.089775
G01 X18.224923 Y-298.351480 Z-0.041882
G01 X18.202797 Y-298.243163 Z-0.042841
G01 X18.168564 Y-297.883160 Z-0.084497
G01 X17.950716 Y-297.601333 Z-0.035108
G01 X17.705070 Y-297.275254 Z-0.091976
G01 X17.386187 Y-296.968478 Z-0.083425
G01 X17.265565 Y-296.915674 Z-0.088251
G01 X16.675213 Y-296.863012 Z-0.093782
G01 X16.675213 Y-296.863012 Z-0.093782
G01 X16.671770 Y-296.906417 Z-0.050236
G01 X16.448589 Y-296.888694 Z-0.050236
G01 X16.275558 Y-296.880989 Z-0.063698
G01 X16.210929 Y-296.917114 Z-0.099822
G01 X16.219904 Y-297.018798 Z-0.038749
G01 X16.363583 Y-297.037566 Z-0.020433
G01 X16.519567 Y-297.059805 Z-0.031073
G01 X17.041594 Y-297.103098 Z-0.035673
G01 X17.457956 Y-297.410382 Z-0.070245
G01 X17.680912 Y-297.846471 Z-0.074281
G01 X17.742069 Y-297.974121 Z-0.079079
G01 X17.851035 Y-298.251093 Z-0.082635
G01 X17.917217 Y-298.465921 Z-0.088900
G01 X18.014245 Y-298.804390 Z-0.105608
G01 X18.133963 Y-298.828633 Z0.000000
G01 X18.014245 Y-298.804390 Z-0.105608
G01 X17.758467 Y-299.127506 Z-0.082352
G01 X17.355735 Y-299.669288 Z-0.023876
G01 X17.571071 Y-299.591423 Z-0.085259
G01 X18.006032 Y-299.154402 Z-0.086642
G01 X18.326044 Y-298.821719 Z-0.079812
G01 X18.445170 Y-298.617813 Z-0.044365
G01 X18.332450 Y-298.533880 Z-0.105523
G00 Z2.000000

G00 Z2.000000
G00 X18.557889 Y-298.406287

G01 Z-0.058420 F100.0(Penetrate)
G01 X18.504521 Y-298.320887 Z-0.080885 F400.000000
G01 X18.413391 Y-298.413004 Z-0.079558
G01 X18.380654 Y-298.464482 Z-0.091863
G01 X18.359995 Y-298.572629 Z-0.072672
G01 X18.449008 Y-298.678237 Z-0.084356
G01 X18.545697 Y-298.576778 Z-0.080377
G01 X18.544653 Y-298.575621 Z-0.078825
G01 X18.584192 Y-298.536307 Z-0.078825
G01 X18.633497 Y-298.437586 Z-0.089718
G01 X18.557889 Y-298.406287 Z-0.058420
G00 Z2.000000

G00 Z2.000000
G00 X18.765351 Y-298.321536

G01 Z-0.080744 F100.0(Penetrate)
G01 X18.807148 Y-298.270623 Z-0.077583 F400.000000
G01 X18.813921 Y-298.162730 Z-0.024102
G01 X18.758211 Y-298.179099 Z-0.007733
G01 X18.736028 Y-298.156972 Z-0.029859
G01 X18.650345 Y-298.166878 Z-0.078458
G01 X18.606262 Y-298.213981 Z-0.079530
G01 X18.561107 Y-298.262157 Z-0.080659
G01 X18.521370 Y-298.391132 Z-0.043265
G01 X18.612471 Y-298.428893 Z-0.081026
G01 X18.657203 Y-298.438122 Z-0.090255
G01 X18.724146 Y-298.371687 Z-0.083848
G01 X18.765351 Y-298.321536 Z-0.080744
G00 Z2.000000

G00 Z2.000000
G00 X18.826537 Y-298.149014

G01 Z-0.025005 F100.0(Penetrate)
G01 X18.826537 Y-298.149014 Z-0.025005 F400.000000
G01 X19.004026 Y-298.006887 Z-0.076962
G01 X18.904204 Y-297.947563 Z-0.047724
G01 X18.788945 Y-298.000932 Z-0.076821
G01 X18.752905 Y-298.041318 Z-0.067254
G01 X18.700468 Y-298.096407 Z-0.065391
G01 X18.686131 Y-298.131826 Z-0.079756
G01 X18.758154 Y-298.179099 Z-0.007733
G01 X18.820271 Y-298.167104 Z-0.031242
G01 X18.817901 Y-298.174019 Z-0.033641
G01 X18.851541 Y-298.076567 Z0.000000
G01 X18.817901 Y-298.174019 Z-0.033641
G01 X18.826537 Y-298.149014 Z-0.025005
G00 Z2.000000

G00 Z2.000000
G00 X18.845107 Y-297.724015

G01 Z-0.021844 F100.0(Penetrate)
G01 X19.182052 Y-297.047867 Z-0.136088 F400.000000
G01 X19.225401 Y-296.660715 Z-0.121299
G01 X19.068542 Y-296.512209 Z-0.090904
G01 X18.943377 Y-296.393676 Z-0.066661
G01 X18.545161 Y-296.133749 Z-0.085118
G01 X18.327314 Y-296.055884 Z-0.099088
G01 X17.883152 Y-295.992638 Z-0.035842
G01 X17.249084 Y-296.148566 Z-0.055654
G01 X16.726408 Y-296.496236 Z-0.096238
G01 X16.617922 Y-296.576048 Z-0.098580
G01 X16.534271 Y-296.698589 Z-0.062145
G01 X16.525748 Y-296.736999 Z-0.067931
G01 X16.525748 Y-296.736999 Z-0.067931
G01 X16.506529 Y-296.824009 Z-0.081167
G01 X16.718280 Y-296.868092 Z-0.092174
G01 X16.903418 Y-296.882457 Z-0.092541
G01 X16.903418 Y-296.882457 Z-0.092541
G01 X17.239065 Y-296.908506 Z-0.093303
G01 X17.400185 Y-296.978384 Z-0.086275
G01 X17.785814 Y-297.266194 Z-0.045692
G01 X18.057707 Y-297.527786 Z-0.060960
G01 X18.212760 Y-297.847233 Z-0.085146
G01 X18.297201 Y-298.160528 Z-0.047159
G01 X18.310860 Y-298.530098 Z-0.087376
G01 X18.310860 Y-298.530098 Z-0.087376
G01 X18.428434 Y-298.397087 Z-0.079276
G01 X18.617156 Y-298.202354 Z-0.079276
G01 X18.745708 Y-298.050433 Z-0.065899
G01 X18.858258 Y-297.923264 Z-0.095194
G01 X18.845107 Y-297.724015 Z-0.021844
G00 Z2.000000

G00 Z2.000000
G00 X19.025927 Y-297.636470

G01 Z-0.120537 F100.0(Penetrate)
G01 X19.025927 Y-297.636470 Z-0.120537 F400.000000
G01 X18.986641 Y-297.700055 Z-0.045805
G01 X18.895963 Y-297.644033 Z-0.045805
G01 X18.844091 Y-297.715577 Z-0.018260
G01 X18.855775 Y-297.810911 Z-0.058505
G01 X18.864241 Y-297.880253 Z-0.087771
G01 X18.958363 Y-297.858917 Z-0.043547
G01 X18.991044 Y-297.825135 Z-0.031976
G01 X19.027366 Y-297.792623 Z-0.023340
G01 X19.042521 Y-297.729011 Z-0.050546
G01 X19.025927 Y-297.636470 Z-0.120537
G00 Z2.000000

G00 Z2.000000
G00 X19.672921 Y-297.210709

G01 Z-0.083933 F100.0(Penetrate)
G01 X20.135540 Y-296.642624 Z-0.088307 F400.000000
G01 X20.464187 Y-296.127343 Z-0.087912
G01 X20.476944 Y-295.954482 Z-0.100640
G01 X20.476944 Y-295.902694 Z-0.100640
G01 X20.424817 Y-295.809307 Z-0.080603
G01 X20.354883 Y-295.781028 Z-0.108881
G01 X20.299144 Y-295.804932 Z-0.084977
G01 X19.776722 Y-296.108829 Z-0.073914
G01 X19.535648 Y-296.249912 Z-0.084610
G01 X19.315091 Y-296.378972 Z-0.094375
G01 X19.303238 Y-296.444279 Z-0.066661
G01 X19.330416 Y-296.625493 Z-0.037648
G01 X19.232033 Y-296.709878 Z-0.135156
G01 X19.198195 Y-296.950783 Z-0.137612
G01 X19.153547 Y-297.161659 Z-0.143736
G01 X19.077404 Y-297.465838 Z-0.164140
G01 X19.055419 Y-297.530016 Z-0.162814
G01 X19.039473 Y-297.712134 Z-0.063331
G01 X18.988335 Y-297.827563 Z-0.032625
G01 X18.910526 Y-297.993763 Z-0.019727
G01 X19.103143 Y-297.909407 Z-0.093049
G01 X19.149314 Y-297.858635 Z-0.088674
G01 X19.405854 Y-297.543873 Z-0.084695
G01 X19.672921 Y-297.210709 Z-0.083933
G00 Z2.000000

G00 Z2.000000
G00 X19.102098 Y-296.225867

G01 Z-0.082465 F100.0(Penetrate)
G01 X18.995108 Y-296.137164 Z-0.078542 F400.000000
G01 X18.757279 Y-295.983692 Z-0.082381
G01 X18.571972 Y-295.890417 Z-0.084751
G01 X18.212731 Y-295.709626 Z-0.089352
G01 X18.065242 Y-295.708723 Z-0.077893
G01 X17.915297 Y-295.760313 Z-0.100753
G01 X17.847282 Y-295.908734 Z0.000000
G01 X17.915297 Y-295.760313 Z-0.100753
G01 X17.549735 Y-295.971415 Z-0.080574
G01 X17.779718 Y-296.006749 Z-0.049953
G01 X18.011959 Y-296.010983 Z-0.054187
G01 X18.329176 Y-296.056138 Z-0.099342
G01 X18.540561 Y-296.131520 Z-0.085965
G01 X19.038683 Y-296.483931 Z-0.085118
G01 X19.331376 Y-296.632069 Z-0.036604
G01 X19.309137 Y-296.405501 Z-0.084046
G01 X19.102098 Y-296.225867 Z-0.082465
G00 Z2.000000

G00 Z2.000000
G00 X18.606065 Y-295.577348

G01 Z-0.007564 F100.0(Penetrate)
G01 X18.606065 Y-295.577348 Z-0.007564 F400.000000
G01 X18.688473 Y-295.635966 Z-0.066181
G01 X18.802745 Y-295.567978 Z-0.112466
G01 X18.765661 Y-295.471769 Z-0.112240
G01 X18.741164 Y-295.481139 Z-0.086021
G01 X18.685792 Y-295.336867 Z-0.086021
G01 X18.476553 Y-295.240657 Z-0.156633
G01 X18.323334 Y-295.358513 Z-0.158694
G01 X18.170821 Y-295.527056 Z-0.120509
G01 X18.296128 Y-295.706691 Z-0.067254
G01 X18.482423 Y-295.664668 Z-0.075015
G01 X18.482423 Y-295.664668 Z-0.075015
G01 X18.523345 Y-295.655411 Z-0.076764
G01 X18.581624 Y-295.645844 Z-0.075692
G01 X18.578379 Y-295.605429 Z-0.035250
G01 X18.613628 Y-295.569672 Z0.000000
G01 X18.578379 Y-295.605429 Z-0.035250
G01 X18.606065 Y-295.577348 Z-0.007564
G00 Z2.000000

G00 Z2.000000
G00 X18.929181 Y-295.394271

G01 Z-0.042531 F100.0(Penetrate)
G01 X18.919670 Y-295.372991 Z-0.033020 F400.000000
G01 X18.866866 Y-295.323066 Z-0.030960
G01 X18.816659 Y-295.279378 Z-0.031835
G01 X18.816659 Y-295.279378 Z-0.031835
G01 X18.808333 Y-295.289199 Z-0.018965
G01 X18.543524 Y-295.065030 Z-0.018965
G01 X18.710374 Y-295.378382 Z-0.094093
G01 X18.775031 Y-295.487630 Z-0.115344
G01 X18.962398 Y-295.576106 Z-0.075748
G01 X18.929181 Y-295.394271 Z-0.042531
G00 Z2.000000

G00 Z2.000000
G00 X19.394227 Y-295.244439

G01 Z-0.104958 F100.0(Penetrate)
G01 X19.361263 Y-295.198211 Z-0.071995 F400.000000
G01 X19.272730 Y-295.112754 Z-0.072390
G01 X19.190236 Y-295.038388 Z-0.081506
G01 X19.190236 Y-295.038388 Z-0.081506
G01 X19.031994 Y-294.895697 Z-0.098975
G01 X18.825464 Y-294.845151 Z-0.151836
G01 X18.727194 Y-295.051117 Z-0.095984
G01 X18.699706 Y-295.158248 Z-0.048740
G01 X18.739979 Y-295.212689 Z-0.033218
G01 X18.857158 Y-295.314628 Z-0.031129
G01 X18.968861 Y-295.482917 Z-0.082211
G01 X19.024798 Y-295.525419 Z-0.114385
G01 X19.193228 Y-295.434064 Z-0.104422
G01 X19.268920 Y-295.378184 Z-0.086586
G01 X19.370915 Y-295.303339 Z-0.081647
G01 X19.394311 Y-295.244552 Z-0.105043
G01 X19.394227 Y-295.244439 Z-0.104958
G00 Z2.000000

G00 Z2.000000
G00 X19.501584 Y-295.018830

G01 Z-0.069511 F100.0(Penetrate)
G01 X19.464839 Y-294.979573 Z-0.066294 F400.000000
G01 X19.381611 Y-294.903373 Z-0.079954
G01 X19.306709 Y-294.860842 Z-0.084102
G01 X19.306709 Y-294.860842 Z-0.084102
G01 X19.292598 Y-294.896967 Z-0.045466
G01 X18.937535 Y-294.717248 Z-0.045466
G01 X19.208722 Y-295.055040 Z-0.079474
G01 X19.351413 Y-295.192200 Z-0.069511
G01 X19.602676 Y-295.223103 Z-0.016820
G01 X19.501584 Y-295.018830 Z-0.069511
G00 Z2.000000

G00 Z2.000000
G00 X19.562685 Y-294.909949

G01 Z-0.031863 F100.0(Penetrate)
G01 X19.577953 Y-294.881981 Z-0.047131 F400.000000
G01 X19.539091 Y-294.824803 Z-0.060226
G01 X19.486287 Y-294.806571 Z-0.041995
G01 X19.394057 Y-294.750550 Z-0.029125
G01 X19.368319 Y-294.789384 Z-0.020122
G01 X19.382345 Y-294.904079 Z-0.079812
G01 X19.382345 Y-294.904079 Z-0.079812
G01 X19.393267 Y-294.895528 Z-0.065955
G01 X19.452703 Y-294.971332 Z-0.065955
G01 X19.550945 Y-294.980138 Z-0.020122
G01 X19.562657 Y-294.910006 Z-0.031835
G01 X19.562657 Y-294.910006 Z-0.031835
G01 X19.562685 Y-294.909949 Z-0.031863
G00 Z2.000000

G00 Z2.000000
G00 X19.783157 Y-294.940768

G01 Z-0.091299 F100.0(Penetrate)
G01 X19.823176 Y-294.830447 Z-0.131318 F400.000000
G01 X19.675461 Y-294.840664 Z-0.084300
G01 X19.631463 Y-294.844784 Z-0.080179
G01 X19.579985 Y-294.862818 Z-0.062145
G01 X19.550945 Y-294.931483 Z-0.020122
G01 X19.550945 Y-294.963966 Z-0.020122
G01 X19.507285 Y-295.034663 Z-0.063782
G01 X19.602422 Y-295.067627 Z-0.071600
G01 X19.661547 Y-295.058229 Z-0.084018
G01 X19.699337 Y-295.035312 Z-0.076115
G01 X19.762047 Y-294.987673 Z-0.070189
G01 X19.783157 Y-294.940768 Z-0.091299
G00 Z2.000000

G00 Z2.000000
G00 X19.844371 Y-294.788255

G01 Z-0.109615 F100.0(Penetrate)
G01 X19.734756 Y-294.722525 Z0.000000 F400.000000
G01 X19.844371 Y-294.788255 Z-0.109615
G01 X19.847842 Y-294.782385 Z-0.106059
G01 X19.882640 Y-294.677539 Z-0.070019
G01 X19.882302 Y-294.620841 Z-0.069681
G01 X19.881568 Y-294.497820 Z-0.068947
G01 X19.781718 Y-294.505750 Z-0.063105
G01 X19.669647 Y-294.580850 Z-0.048204
G01 X19.501810 Y-294.611386 Z-0.098185
G01 X19.468564 Y-294.800447 Z-0.035870
G01 X19.613993 Y-294.844784 Z-0.080179
G01 X19.651133 Y-294.844784 Z-0.080179
G01 X19.732413 Y-294.838349 Z-0.100838
G01 X19.844371 Y-294.788735 Z-0.109615
G01 X19.844371 Y-294.788735 Z-0.109615
G01 X19.844371 Y-294.788255 Z-0.109615
G00 Z2.000000

G00 Z2.000000
G00 X20.033008 Y-295.091305

G01 Z-0.047639 F100.0(Penetrate)
G01 X19.977975 Y-295.088680 Z-0.039822 F400.000000
G01 X19.889273 Y-295.092914 Z-0.035588
G01 X19.835566 Y-295.100364 Z-0.038410
G01 X19.572478 Y-295.147552 Z-0.041854
G01 X19.832292 Y-295.171033 Z-0.015438
G01 X19.933412 Y-295.172359 Z-0.016764
G01 X20.034815 Y-295.173686 Z-0.018090
G01 X20.305212 Y-295.147552 Z-0.043886
G01 X20.033008 Y-295.091305 Z-0.047639
G00 Z2.000000

G00 Z2.000000
G00 X20.283424 Y-294.559288

G01 Z-0.108458 F100.0(Penetrate)
G01 X20.253932 Y-294.498949 Z-0.078938 F400.000000
G01 X20.155154 Y-294.447359 Z-0.071995
G01 X20.086320 Y-294.418854 Z-0.076256
G01 X20.086320 Y-294.418854 Z-0.076256
G01 X19.931973 Y-294.363793 Z-0.077442
G01 X19.860966 Y-294.418854 Z-0.088590
G01 X19.882217 Y-294.602524 Z-0.069568
G01 X19.883402 Y-294.892367 Z-0.071826
G01 X19.883402 Y-294.892367 Z-0.071826
G01 X20.107854 Y-294.728791 Z-0.073434
G01 X20.173470 Y-294.680982 Z-0.073914
G01 X20.257742 Y-294.609411 Z-0.082776
G01 X20.283424 Y-294.559288 Z-0.108458
G00 Z2.000000

G00 Z2.000000
G00 X19.867795 Y-294.402401

G01 Z-0.095419 F100.0(Penetrate)
G01 X19.841521 Y-294.350754 Z-0.069144 F400.000000
G01 X19.766083 Y-294.329870 Z-0.032258
G01 X19.729732 Y-294.336699 Z-0.025428
G01 X19.694088 Y-294.343388 Z-0.018740
G01 X19.652347 Y-294.383322 Z-0.040753
G01 X19.650371 Y-294.440529 Z-0.072475
G01 X19.650371 Y-294.440529 Z-0.072475
G01 X19.668998 Y-294.470586 Z-0.072503
G01 X19.712940 Y-294.522571 Z-0.079925
G01 X19.754624 Y-294.512383 Z-0.069737
G01 X19.805311 Y-294.505496 Z-0.062851
G01 X19.861135 Y-294.443323 Z-0.088731
G01 X19.867795 Y-294.402401 Z-0.095419
G00 Z2.000000

G00 Z2.000000
G00 X19.863731 Y-294.372965

G01 Z-0.091355 F100.0(Penetrate)
G01 X19.914136 Y-294.368393 Z-0.086783 F400.000000
G01 X20.023864 Y-294.392974 Z-0.080123
G01 X20.111748 Y-294.429381 Z-0.074676
G01 X20.205559 Y-294.474678 Z-0.074676
G01 X20.304506 Y-294.547971 Z-0.105325
G01 X20.342409 Y-294.535751 Z-0.093105
G01 X20.382033 Y-294.522966 Z-0.080320
G01 X20.497095 Y-294.447274 Z-0.074761
G01 X20.600275 Y-294.375364 Z-0.075410
G01 X20.772967 Y-294.164657 Z-0.002681
G01 X20.772967 Y-294.164657 Z-0.002681
G01 X20.232568 Y-293.905182 Z-0.076115
G01 X19.903892 Y-293.793365 Z-0.077188
G01 X19.770344 Y-293.758059 Z-0.087207
G01 X19.636232 Y-293.745585 Z-0.117800
G01 X19.619835 Y-293.866715 Z0.000000
G01 X19.636232 Y-293.745585 Z-0.117800
G01 X19.425779 Y-293.835303 Z-0.057376
G01 X19.099191 Y-293.975229 Z-0.091750
G01 X19.004421 Y-294.143208 Z-0.057404
G01 X18.977864 Y-294.165136 Z-0.063839
G01 X18.958080 Y-294.176679 Z-0.064657
G01 X18.951448 Y-294.178288 Z-0.063048
G01 X18.909990 Y-294.188363 Z-0.052973
G01 X18.773366 Y-294.253839 Z-0.074422
G01 X18.647777 Y-294.325410 Z-0.099229
G01 X18.344021 Y-294.590276 Z-0.088561
G01 X18.484822 Y-294.644152 Z-0.087630
G01 X18.599376 Y-294.688800 Z-0.087630
G01 X18.662509 Y-294.713156 Z-0.087404
G01 X18.742293 Y-294.755320 Z-0.097818
G01 X18.777571 Y-294.780296 Z-0.108458
G01 X18.777571 Y-294.780296 Z-0.108458
G01 X18.861024 Y-294.851529 Z-0.145062
G01 X19.081129 Y-294.725573 Z-0.102898
G01 X19.349240 Y-294.556296 Z-0.069455
G01 X19.571519 Y-294.412899 Z-0.038975
G01 X19.811887 Y-294.338901 Z-0.057291
G01 X19.863731 Y-294.372965 Z-0.091355
G00 Z2.000000

G00 Z2.000000
G00 X19.652799 Y-294.444480

G01 Z-0.072475 F100.0(Penetrate)
G01 X19.652799 Y-294.444480 Z-0.072475 F400.000000
G01 X19.641679 Y-294.451282 Z-0.059436
G01 X19.619779 Y-294.416032 Z-0.059436
G01 X19.552271 Y-294.412476 Z-0.030113
G01 X19.518517 Y-294.420548 Z-0.022465
G01 X19.473390 Y-294.431074 Z-0.011938
G01 X19.445252 Y-294.496352 Z-0.058081
G01 X19.482562 Y-294.557143 Z-0.088731
G01 X19.482562 Y-294.557143 Z-0.088731
G01 X19.493879 Y-294.539815 Z-0.068044
G01 X19.588085 Y-294.600690 Z-0.068044
G01 X19.696712 Y-294.574246 Z-0.041600
G01 X19.652799 Y-294.444480 Z-0.072475
G00 Z2.000000

G00 Z2.000000
G00 X19.463145 Y-294.708160

G01 Z-0.085231 F100.0(Penetrate)
G01 X19.501697 Y-294.567331 Z-0.086924 F400.000000
G01 X19.389259 Y-294.537331 Z-0.070104
G01 X19.275439 Y-294.591236 Z-0.068213
G01 X19.276032 Y-294.592590 Z-0.066746
G01 X19.186088 Y-294.633597 Z-0.066746
G01 X19.089935 Y-294.737568 Z-0.096181
G01 X19.209964 Y-294.805837 Z-0.089464
G01 X19.213435 Y-294.800447 Z-0.083058
G01 X19.325393 Y-294.871454 Z-0.083058
G01 X19.373991 Y-294.785800 Z-0.018627
G01 X19.463145 Y-294.708160 Z-0.085231
G00 Z2.000000

G00 Z2.000000
G00 X19.069756 Y-294.056791

G01 Z-0.062315 F100.0(Penetrate)
G01 X19.082117 Y-293.945003 Z-0.074676 F400.000000
G01 X18.951279 Y-294.007713 Z-0.052719
G01 X18.897120 Y-294.022953 Z-0.064008
G01 X18.897120 Y-294.022953 Z-0.064008
G01 X18.832943 Y-294.027271 Z-0.090509
G01 X18.795125 Y-294.106858 Z-0.051252
G01 X18.780224 Y-294.142869 Z-0.066181
G01 X18.771560 Y-294.254798 Z-0.074817
G01 X18.902821 Y-294.192597 Z-0.053453
G01 X18.956867 Y-294.176990 Z-0.064347
G01 X18.956867 Y-294.176990 Z-0.064347
G01 X18.954129 Y-294.170837 Z-0.057630
G01 X19.002841 Y-294.144732 Z-0.057630
G01 X19.057056 Y-294.091984 Z-0.049615
G01 X19.069756 Y-294.056791 Z-0.062315
G00 Z2.000000

G00 Z2.000000
G00 X19.221902 Y-293.885511

G01 Z-0.111421 F100.0(Penetrate)
G01 X19.394904 Y-293.679799 Z-0.051506 F400.000000
G01 X19.429194 Y-293.640824 Z-0.059436
G01 X19.470144 Y-293.460004 Z-0.100358
G01 X19.461311 Y-293.367351 Z-0.091525
G01 X19.451913 Y-293.211846 Z-0.071346
G01 X19.449232 Y-293.112702 Z-0.055231
G01 X19.462157 Y-292.901740 Z-0.039370
G01 X19.430746 Y-292.901091 Z-0.026190
G01 X19.045485 Y-292.713668 Z-0.026190
G01 X18.847026 Y-292.580600 Z-0.059069
G01 X18.646902 Y-292.478322 Z-0.071515
G01 X18.610975 Y-292.471747 Z-0.078091
G01 X18.546205 Y-292.512302 Z-0.037536
G01 X18.536638 Y-292.576649 Z-0.018344
G01 X18.431002 Y-292.901684 Z-0.010358
G01 X18.295705 Y-293.127800 Z-0.063133
G01 X18.295705 Y-293.127800 Z-0.063133
G01 X18.483834 Y-293.424049 Z-0.065984
G01 X18.580354 Y-293.570776 Z-0.064572
G01 X18.690026 Y-293.763845 Z-0.074507
G01 X18.736395 Y-293.847778 Z-0.077696
G01 X18.785276 Y-293.936198 Z-0.081054
G01 X18.868051 Y-294.030262 Z-0.071318
G01 X18.916481 Y-294.018268 Z-0.059323
G01 X18.945380 Y-294.011241 Z-0.052296
G01 X19.079775 Y-293.946217 Z-0.074224
G01 X19.221902 Y-293.885511 Z-0.111421
G00 Z2.000000

G00 Z2.000000
G00 X19.566721 Y-293.708134

G01 Z-0.076172 F100.0(Penetrate)
G01 X19.549082 Y-293.617202 Z-0.058505 F400.000000
G01 X19.436673 Y-293.624850 Z-0.066887
G01 X19.396879 Y-293.677541 Z-0.051957
G01 X19.360924 Y-293.706751 Z-0.052522
G01 X19.311733 Y-293.750778 Z-0.058053
G01 X19.296437 Y-293.781512 Z-0.073350
G01 X19.288901 Y-293.883563 Z-0.080885
G01 X19.412035 Y-293.841653 Z-0.058392
G01 X19.451743 Y-293.828643 Z-0.060452
G01 X19.501245 Y-293.815999 Z-0.066294
G01 X19.577812 Y-293.765228 Z-0.087263
G01 X19.566721 Y-293.708134 Z-0.076172
G00 Z2.000000

G00 Z2.000000
G00 X19.646957 Y-293.405620

G01 Z-0.053058 F100.0(Penetrate)
G01 X19.646957 Y-293.405620 Z-0.053058 F400.000000
G01 X19.644953 Y-293.406438 Z-0.050913
G01 X19.586646 Y-293.262025 Z-0.050913
G01 X19.517417 Y-293.408724 Z-0.060029
G01 X19.511010 Y-293.475809 Z-0.066435
G01 X19.473616 Y-293.551360 Z-0.103830
G01 X19.586617 Y-293.784221 Z-0.086219
G01 X19.646957 Y-293.545997 Z-0.053086
G01 X19.653561 Y-293.507135 Z-0.044648
G01 X19.653561 Y-293.444510 Z-0.044648
G01 X19.646957 Y-293.405620 Z-0.053058
G00 Z2.000000

G00 Z2.000000
G00 X19.774549 Y-293.402882

G01 Z-0.060424 F100.0(Penetrate)
G01 X19.774549 Y-293.402882 Z-0.060424 F400.000000
G01 X19.768820 Y-293.405168 Z-0.054243
G01 X19.707409 Y-293.253107 Z-0.054243
G01 X19.646957 Y-293.410418 Z-0.051280
G01 X19.653561 Y-293.475809 Z-0.044648
G01 X19.646957 Y-293.541143 Z-0.051252
G01 X19.707380 Y-293.772227 Z-0.081732
G01 X19.772122 Y-293.547775 Z-0.057799
G01 X19.780504 Y-293.508349 Z-0.050800
G01 X19.781633 Y-293.443099 Z-0.051957
G01 X19.774549 Y-293.402882 Z-0.060424
G00 Z2.000000

G00 Z2.000000
G00 X19.803223 Y-293.032522

G01 Z-0.044648 F100.0(Penetrate)
G01 X19.803223 Y-293.032522 Z-0.044648 F400.000000
G01 X19.770231 Y-292.691936 Z-0.098637
G01 X19.687399 Y-293.016097 Z-0.053538
G01 X19.694596 Y-293.092777 Z-0.045381
G01 X19.692281 Y-293.165477 Z-0.046792
G01 X19.737578 Y-293.344321 Z-0.048062
G01 X19.799018 Y-293.180943 Z-0.043688
G01 X19.793091 Y-293.178488 Z-0.037253
G01 X19.806723 Y-293.144649 Z-0.037253
G01 X19.808275 Y-293.078327 Z-0.037987
G01 X19.803223 Y-293.032522 Z-0.044648
G00 Z2.000000

G00 Z2.000000
G00 X19.689092 Y-293.029954

G01 Z-0.051675 F100.0(Penetrate)
G01 X19.628979 Y-292.900950 Z-0.026134 F400.000000
G01 X19.574623 Y-293.030039 Z-0.046059
G01 X19.567398 Y-293.113464 Z-0.053284
G01 X19.559242 Y-293.198864 Z-0.061440
G01 X19.628979 Y-293.389957 Z-0.042277
G01 X19.692281 Y-293.197820 Z-0.054977
G01 X19.694229 Y-293.150971 Z-0.045014
G01 X19.694709 Y-293.075928 Z-0.045494
G01 X19.689092 Y-293.029954 Z-0.051675
G00 Z2.000000

G00 Z2.000000
G00 X19.585404 Y-292.889153

G01 Z-0.067649 F100.0(Penetrate)
G01 X19.509401 Y-292.631569 Z-0.041712 F400.000000
G01 X19.453775 Y-292.888363 Z-0.047752
G01 X19.455949 Y-292.992531 Z-0.045551
G01 X19.448808 Y-293.097179 Z-0.052691
G01 X19.509373 Y-293.492940 Z-0.068072
G01 X19.569374 Y-293.092805 Z-0.051308
G01 X19.574623 Y-293.037687 Z-0.046059
G01 X19.585376 Y-292.946332 Z-0.056811
G01 X19.585404 Y-292.889153 Z-0.067649
G00 Z2.000000

G00 Z2.000000
G00 X19.550041 Y-292.711861

G01 Z-0.066435 F100.0(Penetrate)
G01 X19.550041 Y-292.711861 Z-0.066435 F400.000000
G01 X19.663354 Y-292.556216 Z-0.059577
G01 X19.746186 Y-292.450608 Z-0.059577
G01 X19.668885 Y-292.389676 Z-0.048429
G01 X19.571011 Y-292.465594 Z-0.049050
G01 X19.571011 Y-292.465594 Z-0.049050
G01 X19.572591 Y-292.467654 Z-0.046454
G01 X19.499411 Y-292.525058 Z-0.046454
G01 X19.450417 Y-292.623893 Z-0.034036
G01 X19.546034 Y-292.660299 Z-0.070443
G01 X19.572563 Y-292.633770 Z-0.043914
G01 X19.599120 Y-292.569706 Z-0.017357
G01 X19.550041 Y-292.711805 Z-0.066435
G01 X19.616477 Y-292.519414 Z0.000000
G01 X19.550041 Y-292.711805 Z-0.066435
G01 X19.550041 Y-292.711861 Z-0.066435
G00 Z2.000000

G00 Z2.000000
G00 X19.624915 Y-292.576310

G01 Z-0.041741 F100.0(Penetrate)
G01 X19.679102 Y-292.824016 Z0.000000 F400.000000
G01 X19.624915 Y-292.576310 Z-0.041741
G01 X19.669083 Y-292.778155 Z-0.007733
G01 X19.576203 Y-292.766133 Z-0.081873
G01 X19.582130 Y-292.845296 Z-0.072729
G01 X19.586363 Y-292.902164 Z-0.066125
G01 X19.651387 Y-292.968938 Z-0.030621
G01 X19.715367 Y-292.940744 Z-0.055908
G01 X19.736675 Y-292.908740 Z-0.048204
G01 X19.750984 Y-292.842700 Z-0.059775
G01 X19.624943 Y-292.576282 Z-0.041741
G01 X19.624915 Y-292.576310 Z-0.041741
G00 Z2.000000

G00 Z2.000000
G00 X19.987401 Y-292.369046

G01 Z-0.101177 F100.0(Penetrate)
G01 X19.987401 Y-292.369046 Z-0.101177 F400.000000
G01 X19.957175 Y-292.394926 Z-0.061383
G01 X19.900449 Y-292.329253 Z-0.061383
G01 X19.652178 Y-292.543883 Z-0.043180
G01 X19.643485 Y-292.601230 Z-0.049671
G01 X19.656750 Y-292.678079 Z-0.033472
G01 X19.793317 Y-292.669302 Z-0.089352
G01 X19.861530 Y-292.609471 Z-0.085965
G01 X19.926836 Y-292.552124 Z-0.082578
G01 X20.036593 Y-292.446121 Z-0.088279
G01 X19.987401 Y-292.369046 Z-0.101177
G00 Z2.000000

G00 Z2.000000
G00 X20.168306 Y-292.236571

G01 Z-0.101318 F100.0(Penetrate)
G01 X20.198249 Y-292.155065 Z-0.067338 F400.000000
G01 X20.346106 Y-291.982797 Z-0.083764
G01 X20.168898 Y-292.012007 Z-0.054554
G01 X20.140958 Y-292.021772 Z-0.044789
G01 X20.073507 Y-292.078018 Z-0.047018
G01 X20.015285 Y-292.130625 Z-0.053396
G01 X20.015285 Y-292.130625 Z-0.053396
G01 X19.956103 Y-292.184106 Z-0.059916
G01 X19.780335 Y-292.362865 Z-0.094996
G01 X19.979781 Y-292.365546 Z-0.097677
G01 X20.037637 Y-292.392132 Z-0.124262
G01 X20.137374 Y-292.320758 Z-0.136398
G01 X20.168306 Y-292.236571 Z-0.101318
G00 Z2.000000

G00 Z2.000000
G00 X20.203414 Y-292.137991

G01 Z-0.061327 F100.0(Penetrate)
G01 X20.283001 Y-292.501944 Z0.000000 F400.000000
G01 X20.203414 Y-292.137991 Z-0.061327
G01 X20.272982 Y-292.456083 Z-0.007733
G01 X20.210018 Y-292.457184 Z-0.051449
G01 X20.213123 Y-292.524325 Z-0.045579
G01 X20.215521 Y-292.575746 Z-0.041092
G01 X20.241994 Y-292.711664 Z-0.067000
G01 X20.306228 Y-292.605576 Z-0.037394
G01 X20.318533 Y-292.576987 Z-0.025767
G01 X20.320141 Y-292.526582 Z-0.025315
G01 X20.203414 Y-292.137934 Z-0.061299
G01 X20.203414 Y-292.137934 Z-0.061299
G01 X20.203414 Y-292.137991 Z-0.061327
G00 Z2.000000

G00 Z2.000000
G00 X20.664255 Y-291.787188

G01 Z-0.038693 F100.0(Penetrate)
G01 X20.664255 Y-291.787188 Z-0.038693 F400.000000
G01 X20.848800 Y-291.605127 Z-0.071543
G01 X20.756852 Y-291.534712 Z-0.055682
G01 X20.654264 Y-291.615795 Z-0.055174
G01 X20.655026 Y-291.616754 Z-0.053961
G01 X20.580802 Y-291.674920 Z-0.053961
G01 X20.443303 Y-291.830227 Z-0.085372
G01 X20.633041 Y-291.795712 Z-0.050856
G01 X20.658864 Y-291.786991 Z-0.042136
G01 X20.686042 Y-291.724592 Z-0.017216
G01 X20.664227 Y-291.787188 Z-0.038721
G01 X20.703512 Y-291.674384 Z0.000000
G01 X20.664227 Y-291.787188 Z-0.038721
G01 X20.664255 Y-291.787188 Z-0.038693
G00 Z2.000000

G00 Z2.000000
G00 X20.987061 Y-291.542586

G01 Z-0.037423 F100.0(Penetrate)
G01 X20.987061 Y-291.542586 Z-0.037423 F400.000000
G01 X21.035349 Y-291.440450 Z-0.012390
G01 X21.092217 Y-291.367891 Z-0.012390
G01 X21.078867 Y-291.288078 Z-0.059690
G01 X20.973147 Y-291.370064 Z-0.060339
G01 X20.973147 Y-291.370064 Z-0.060339
G01 X20.897878 Y-291.428710 Z-0.060678
G01 X20.802854 Y-291.568128 Z-0.064911
G01 X20.955141 Y-291.552295 Z-0.049078
G01 X20.980287 Y-291.543772 Z-0.040555
G01 X21.008001 Y-291.482868 Z-0.017074
G01 X20.987061 Y-291.542558 Z-0.037423
G01 X21.025584 Y-291.432774 Z0.000000
G01 X20.987061 Y-291.542558 Z-0.037423
G01 X20.987061 Y-291.542586 Z-0.037423
G00 Z2.000000

G00 Z2.000000
G00 X21.162800 Y-291.661797

G01 Z-0.023142 F100.0(Penetrate)
G01 X21.162800 Y-291.661797 Z-0.023142 F400.000000
G01 X21.269932 Y-291.528165 Z-0.024948
G01 X21.237363 Y-291.495484 Z-0.024807
G01 X21.155914 Y-291.558871 Z-0.025146
G01 X21.155914 Y-291.558871 Z-0.025146
G01 X21.085274 Y-291.613876 Z-0.025485
G01 X20.994652 Y-291.712541 Z-0.048175
G01 X21.116177 Y-291.693293 Z-0.028928
G01 X21.133873 Y-291.686887 Z-0.022521
G01 X21.169037 Y-291.643989 Z-0.017074
G01 X21.162800 Y-291.661797 Z-0.023142
G01 X21.186620 Y-291.593894 Z0.000000
G01 X21.162800 Y-291.661797 Z-0.023142
G01 X21.162800 Y-291.661797 Z-0.023142
G00 Z2.000000

G00 Z2.000000
G00 X21.366283 Y-291.494468

G01 Z-0.021026 F100.0(Penetrate)
G01 X21.366283 Y-291.494468 Z-0.021026 F400.000000
G01 X21.498278 Y-291.365153 Z-0.045099
G01 X21.439576 Y-291.315990 Z-0.038721
G01 X21.358578 Y-291.399500 Z-0.022945
G01 X21.288220 Y-291.454279 Z-0.023255
G01 X21.252152 Y-291.520742 Z-0.017526
G01 X21.317486 Y-291.528899 Z-0.025682
G01 X21.333996 Y-291.522887 Z-0.019671
G01 X21.370347 Y-291.482868 Z-0.017074
G01 X21.366283 Y-291.494439 Z-0.021026
G01 X21.387929 Y-291.432774 Z0.000000
G01 X21.366283 Y-291.494439 Z-0.021026
G01 X21.366283 Y-291.494468 Z-0.021026
G00 Z2.000000

G00 Z2.000000
G00 X21.494609 Y-291.348474

G01 Z-0.054356 F100.0(Penetrate)
G01 X21.494609 Y-291.348474 Z-0.054356 F400.000000
G01 X21.586247 Y-291.220232 Z-0.047357
G01 X21.662334 Y-291.123204 Z-0.047357
G01 X21.601797 Y-291.054032 Z-0.053876
G01 X21.500395 Y-291.133195 Z-0.054102
G01 X21.500395 Y-291.133195 Z-0.054102
G01 X21.424957 Y-291.190317 Z-0.055711
G01 X21.431871 Y-291.268803 Z-0.007366
G01 X21.478522 Y-291.322764 Z-0.061327
G01 X21.505051 Y-291.305350 Z-0.043914
G01 X21.531608 Y-291.241286 Z-0.017357
G01 X21.494581 Y-291.348446 Z-0.054384
G01 X21.548965 Y-291.190994 Z0.000000
G01 X21.494581 Y-291.348446 Z-0.054384
G01 X21.494609 Y-291.348474 Z-0.054356
G00 Z2.000000

G00 Z2.000000
G00 X21.444599 Y-291.315398

G01 Z-0.042672 F100.0(Penetrate)
G01 X21.444599 Y-291.315398 Z-0.042672 F400.000000
G01 X21.414881 Y-291.297053 Z-0.007733
G01 X21.450949 Y-291.238577 Z-0.007733
G01 X21.155011 Y-291.408051 Z-0.042531
G01 X20.825573 Y-291.628043 Z-0.067395
G01 X20.491168 Y-291.843633 Z-0.098778
G01 X20.232173 Y-292.102939 Z-0.063613
G01 X20.222323 Y-292.152440 Z-0.073462
G01 X20.248429 Y-292.287964 Z-0.047357
G01 X21.379293 Y-291.383413 Z-0.022860
G01 X21.444599 Y-291.315398 Z-0.042672
G00 Z2.000000

G00 Z2.000000
G00 X21.239734 Y-291.336338

G01 Z-0.051421 F100.0(Penetrate)
G01 X21.239734 Y-291.336338 Z-0.051421 F400.000000
G01 X21.287966 Y-291.293271 Z-0.058279
G01 X21.297533 Y-291.204004 Z-0.017328
G01 X21.254353 Y-291.157946 Z-0.063387
G01 X21.223563 Y-291.168416 Z-0.052917
G01 X21.162744 Y-291.218003 Z-0.055231
G01 X21.116177 Y-291.260957 Z-0.060932
G01 X21.087137 Y-291.319772 Z-0.043011
G01 X21.071897 Y-291.396254 Z-0.013885
G01 X21.108614 Y-291.433112 Z-0.050744
G01 X21.135255 Y-291.424110 Z-0.041741
G01 X21.192885 Y-291.378164 Z-0.044732
G01 X21.239734 Y-291.336338 Z-0.051421
G00 Z2.000000

G00 Z2.000000
G00 X21.667131 Y-290.990786

G01 Z-0.083030 F100.0(Penetrate)
G01 X21.637329 Y-290.861246 Z-0.053227 F400.000000
G01 X21.397750 Y-291.021040 Z-0.052042
G01 X21.332726 Y-291.088068 Z-0.060226
G01 X21.294118 Y-291.204569 Z-0.016764
G01 X21.399811 Y-291.212471 Z-0.058730
G01 X21.485380 Y-291.144568 Z-0.054412
G01 X21.484505 Y-291.143355 Z-0.052917
G01 X21.557883 Y-291.089648 Z-0.052917
G01 X21.676247 Y-291.041529 Z-0.092146
G01 X21.667075 Y-290.990898 Z-0.082973
G01 X21.667131 Y-290.990786 Z-0.083030
G00 Z2.000000

G00 Z2.000000
G00 X21.934311 Y-290.727444

G01 Z-0.113284 F100.0(Penetrate)
G01 X21.820547 Y-290.669306 Z0.000000 F400.000000
G01 X21.934311 Y-290.727444 Z-0.113284
G01 X22.180578 Y-290.536154 Z-0.100104
G01 X22.577129 Y-290.174373 Z-0.063218
G01 X22.603347 Y-290.124335 Z-0.068298
G01 X22.648333 Y-290.055021 Z-0.083058
G01 X22.502537 Y-289.967137 Z-0.071797
G01 X22.391793 Y-289.906968 Z-0.073039
G01 X22.391793 Y-289.906968 Z-0.073039
G01 X22.292818 Y-289.853232 Z-0.074140
G01 X21.966259 Y-289.654379 Z-0.077950
G01 X21.668119 Y-289.467548 Z-0.080151
G01 X21.367383 Y-289.282692 Z-0.079304
G01 X20.985113 Y-289.053076 Z-0.079812
G01 X20.815272 Y-288.954270 Z-0.082240
G01 X20.815272 Y-288.954270 Z-0.082240
G01 X20.654490 Y-288.860742 Z-0.084554
G01 X20.371788 Y-288.695924 Z-0.088279
G01 X20.191109 Y-288.590373 Z-0.090509
G01 X19.812931 Y-288.399195 Z-0.069314
G01 X19.778867 Y-288.424934 Z-0.066633
G01 X19.617380 Y-288.531783 Z-0.066633
G01 X19.467125 Y-288.633694 Z-0.064572
G01 X19.402213 Y-288.701455 Z-0.083199
G01 X19.411950 Y-288.840788 Z-0.140349
G01 X19.411950 Y-288.840788 Z-0.140349
G01 X19.443305 Y-288.824024 Z-0.104789
G01 X19.457642 Y-288.850807 Z-0.104789
G01 X19.484820 Y-288.925540 Z-0.086755
G01 X19.473362 Y-289.000865 Z-0.090988
G01 X19.460125 Y-289.251535 Z-0.080349
G01 X19.554783 Y-289.236859 Z-0.072954
G01 X19.867683 Y-289.212870 Z-0.072954
G01 X19.864014 Y-289.165090 Z-0.025061
G01 X20.149933 Y-289.143020 Z-0.025061
G01 X20.149933 Y-289.143020 Z-0.025061
G01 X20.108813 Y-289.192409 Z-0.066181
G01 X20.103479 Y-289.210951 Z-0.071515
G01 X20.048926 Y-289.268383 Z-0.081393
G01 X19.975012 Y-289.329682 Z-0.081986
G01 X19.766083 Y-289.524415 Z-0.067197
G01 X19.979979 Y-289.667558 Z-0.076510
G01 X20.102209 Y-289.736788 Z-0.071148
G01 X20.233951 Y-289.768312 Z-0.075861
G01 X20.537678 Y-289.779685 Z-0.072785
G01 X20.532880 Y-289.734248 Z-0.027601
G01 X20.737379 Y-289.744041 Z-0.027601
G01 X20.894209 Y-289.810814 Z-0.071092
G01 X20.901152 Y-289.817729 Z-0.071092
G01 X20.903749 Y-289.826986 Z-0.075805
G01 X20.844877 Y-289.869517 Z-0.090368
G01 X20.626465 Y-290.016583 Z-0.073914
G01 X20.447226 Y-290.119142 Z-0.076059
G01 X20.368881 Y-290.217356 Z-0.081788
G01 X20.516878 Y-290.294656 Z-0.073124
G01 X20.516935 Y-290.294600 Z-0.073011
G01 X20.556333 Y-290.317827 Z-0.073011
G01 X20.753635 Y-290.445702 Z-0.073547
G01 X20.957173 Y-290.576681 Z-0.071487
G01 X21.352369 Y-290.828113 Z-0.065024
G01 X21.485832 Y-290.929346 Z-0.079954
G01 X21.533838 Y-290.918932 Z-0.062174
G01 X21.538720 Y-290.910183 Z-0.053425
G01 X21.562907 Y-290.910183 Z-0.053425
G01 X21.745815 Y-290.879308 Z-0.127734
G01 X21.934255 Y-290.727557 Z-0.113256
G01 X21.934311 Y-290.727444 Z-0.113284
G00 Z2.000000

G00 Z2.000000
G00 X22.567872 Y-290.532598

G01 Z-0.073350 F100.0(Penetrate)
G01 X22.494805 Y-290.493736 Z0.000000 F400.000000
G01 X22.567872 Y-290.532598 Z-0.073350
G01 X22.710309 Y-290.432860 Z-0.071656
G01 X23.073021 Y-290.169547 Z-0.074958
G01 X23.124245 Y-290.127637 Z-0.079304
G01 X23.150745 Y-290.053243 Z-0.042418
G01 X23.077819 Y-290.015313 Z-0.038608
G01 X23.043360 Y-290.003770 Z-0.050151
G01 X22.959032 Y-289.975463 Z-0.078458
G01 X22.005290 Y-290.664621 Z-0.103209
G01 X21.854442 Y-290.798197 Z-0.124573
G01 X21.655645 Y-291.131106 Z-0.046962
G01 X21.986720 Y-290.968038 Z-0.069257
G01 X22.117191 Y-290.866636 Z-0.071995
G01 X22.242300 Y-290.769382 Z-0.074591
G01 X22.430458 Y-290.628864 Z-0.074930
G01 X22.567815 Y-290.532711 Z-0.073293
G01 X22.567872 Y-290.532598 Z-0.073350
G00 Z2.000000

G00 Z2.000000
G00 X22.720300 Y-290.208324

G01 Z-0.036491 F100.0(Penetrate)
G01 X22.720300 Y-290.208324 Z-0.036491 F400.000000
G01 X22.898777 Y-290.033064 Z-0.068778
G01 X22.809313 Y-289.970863 Z-0.049982
G01 X22.701645 Y-290.036536 Z-0.064714
G01 X22.701645 Y-290.036536 Z-0.064714
G01 X22.620845 Y-290.091118 Z-0.071628
G01 X22.505134 Y-290.253762 Z-0.080659
G01 X22.686321 Y-290.220404 Z-0.047300
G01 X22.710874 Y-290.212191 Z-0.039088
G01 X22.739407 Y-290.152952 Z-0.017357
G01 X22.720300 Y-290.208324 Z-0.036491
G01 X22.756791 Y-290.102660 Z0.000000
G01 X22.720300 Y-290.208324 Z-0.036491
G01 X22.720300 Y-290.208324 Z-0.036491
G00 Z2.000000

G00 Z2.000000
G00 X22.914074 Y-289.926441

G01 Z-0.090509 F100.0(Penetrate)
G01 X23.085806 Y-289.630333 Z-0.002568 F400.000000
G01 X23.085806 Y-289.630333 Z-0.002568
G01 X22.477956 Y-289.245975 Z-0.084921
G01 X22.148998 Y-289.092079 Z-0.080772
G01 X21.495484 Y-288.772180 Z-0.079756
G01 X21.024088 Y-288.538133 Z-0.079248
G01 X20.361938 Y-288.166701 Z-0.116727
G01 X20.108870 Y-288.087453 Z-0.092654
G01 X20.144712 Y-288.075458 Z-0.083679
G01 X20.065182 Y-288.224528 Z0.000000
G01 X20.144712 Y-288.075458 Z-0.083679
G01 X19.867203 Y-288.256560 Z-0.078542
G01 X19.878463 Y-288.407718 Z-0.094347
G01 X20.055332 Y-288.511040 Z-0.092174
G01 X20.128766 Y-288.553966 Z-0.091271
G01 X20.498901 Y-288.770007 Z-0.086614
G01 X20.878038 Y-288.990761 Z-0.081336
G01 X21.254889 Y-289.214592 Z-0.079897
G01 X21.706614 Y-289.491198 Z-0.080264
G01 X21.883935 Y-289.602647 Z-0.078684
G01 X22.230193 Y-289.817193 Z-0.073039
G01 X22.638145 Y-290.051748 Z-0.079925
G01 X22.709971 Y-290.033657 Z-0.061835
G01 X22.744091 Y-290.021888 Z-0.050066
G01 X22.833866 Y-289.972330 Z-0.066238
G01 X22.914074 Y-289.926441 Z-0.090509
G00 Z2.000000

G00 Z2.000000
G00 X23.149588 Y-289.890119

G01 Z-0.054695 F100.0(Penetrate)
G01 X23.121169 Y-289.809488 Z-0.063387 F400.000000
G01 X23.033510 Y-289.756966 Z-0.055146
G01 X22.976530 Y-289.813947 Z-0.055118
G01 X22.926520 Y-289.863985 Z-0.055146
G01 X22.925673 Y-289.975463 Z-0.098580
G01 X23.020980 Y-289.996263 Z-0.057658
G01 X23.032043 Y-289.981700 Z-0.039370
G01 X23.075533 Y-290.014551 Z-0.039370
G01 X23.122185 Y-290.043958 Z-0.036096
G01 X23.136493 Y-290.049405 Z-0.038580
G01 X23.136493 Y-290.049405 Z-0.038580
G01 X23.140388 Y-290.030835 Z-0.020010
G01 X23.173972 Y-290.030835 Z-0.020010
G01 X23.178855 Y-289.944023 Z-0.058138
G01 X23.149588 Y-289.890119 Z-0.054695
G00 Z2.000000

G00 Z2.000000
G00 X23.572160 Y-289.128062

G01 Z-0.105100 F100.0(Penetrate)
G01 X23.707457 Y-288.951786 Z-0.107273 F400.000000
G01 X23.831917 Y-288.789001 Z-0.108853
G01 X23.849104 Y-288.766395 Z-0.108966
G01 X23.849104 Y-288.766395 Z-0.108966
G01 X23.940939 Y-288.645237 Z-0.109643
G01 X23.664221 Y-288.420560 Z-0.155561
G01 X23.321151 Y-288.275413 Z-0.130782
G01 X22.540722 Y-287.995843 Z-0.029238
G01 X21.706022 Y-287.584787 Z-0.050094
G01 X21.633378 Y-287.573724 Z-0.061158
G01 X21.586924 Y-287.543639 Z-0.091242
G01 X21.404213 Y-287.572200 Z-0.135128
G01 X21.252039 Y-287.649416 Z-0.133519
G01 X21.103816 Y-287.718870 Z-0.137132
G01 X20.917126 Y-287.897094 Z-0.051280
G01 X20.770624 Y-287.893679 Z-0.108514
G01 X20.628808 Y-287.923905 Z-0.132729
G01 X20.472880 Y-287.999032 Z-0.138430
G01 X20.420133 Y-288.038882 Z-0.153557
G01 X20.369135 Y-288.200850 Z-0.089380
G01 X20.661348 Y-288.358076 Z-0.078825
G01 X21.356913 Y-288.703374 Z-0.079615
G01 X21.850632 Y-288.947327 Z-0.079107
G01 X22.355302 Y-289.191167 Z-0.081054
G01 X22.552858 Y-289.279446 Z-0.087291
G01 X22.552858 Y-289.279446 Z-0.087291
G01 X22.595050 Y-289.298327 Z-0.088618
G01 X22.710535 Y-289.355110 Z-0.087602
G01 X22.738729 Y-289.373172 Z-0.083566
G01 X22.742652 Y-289.368488 Z-0.077442
G01 X22.781712 Y-289.400689 Z-0.077442
G01 X22.806999 Y-289.613456 Z-0.252674
G01 X23.040792 Y-289.541320 Z-0.096407
G01 X22.957141 Y-289.504067 Z-0.094065
G01 X23.178883 Y-289.596072 Z-0.094065
G01 X23.242383 Y-289.557633 Z-0.099794
G01 X23.572160 Y-289.128062 Z-0.105100
G00 Z2.000000

G00 Z2.000000
G00 X24.042116 Y-289.005888

G01 Z-0.071910 F100.0(Penetrate)
G01 X24.650672 Y-288.190407 Z-0.070753 F400.000000
G01 X25.188475 Y-287.433516 Z-0.067112
G01 X25.412107 Y-287.110428 Z-0.081788
G01 X25.459634 Y-287.036880 Z-0.082240
G01 X25.515881 Y-286.909203 Z-0.096689
G01 X25.477724 Y-286.832777 Z-0.123754
G01 X25.351317 Y-286.787114 Z-0.066633
G01 X25.138719 Y-286.931696 Z-0.141111
G01 X25.124213 Y-287.146467 Z-0.066971
G01 X25.106856 Y-287.211802 Z-0.056275
G01 X24.836882 Y-287.466056 Z-0.124319
G01 X24.648075 Y-287.804666 Z-0.061807
G01 X24.372683 Y-288.078450 Z-0.107442
G01 X24.168015 Y-288.437888 Z-0.048740
G01 X24.095682 Y-288.526929 Z-0.055400
G01 X24.008306 Y-288.602565 Z-0.082042
G01 X23.787777 Y-288.847167 Z-0.108571
G01 X23.611643 Y-289.076613 Z-0.105720
G01 X23.216023 Y-289.582864 Z-0.104958
G01 X23.119560 Y-289.834775 Z-0.051139
G01 X23.167989 Y-289.923986 Z-0.056868
G01 X23.248564 Y-289.950373 Z-0.002173
G01 X23.248564 Y-289.950373 Z-0.002173
G01 X24.042116 Y-289.005888 Z-0.071910
G00 Z2.000000

G00 Z2.000000
G00 X24.138439 Y-288.474464

G01 Z-0.051364 F100.0(Penetrate)
G01 X24.138439 Y-288.474464 Z-0.051364 F400.000000
G01 X24.136068 Y-288.472291 Z-0.048119
G01 X24.178627 Y-288.425188 Z-0.048119
G01 X24.264112 Y-288.305498 Z-0.053989
G01 X24.153114 Y-288.293023 Z-0.066463
G01 X24.122691 Y-288.307586 Z-0.051901
G01 X24.068701 Y-288.363522 Z-0.044930
G01 X24.023828 Y-288.407182 Z-0.048937
G01 X23.959820 Y-288.437775 Z-0.075861
G01 X23.835783 Y-288.607278 Z-0.086755
G01 X24.007375 Y-288.603044 Z-0.082522
G01 X24.042511 Y-288.585067 Z-0.064544
G01 X24.098730 Y-288.523571 Z-0.054864
G01 X24.138439 Y-288.474464 Z-0.051364
G00 Z2.000000

G00 Z2.000000
G00 X24.474678 Y-288.039023

G01 Z-0.052014 F100.0(Penetrate)
G01 X24.474678 Y-288.039023 Z-0.052014 F400.000000
G01 X24.648894 Y-287.818156 Z-0.052804
G01 X24.582374 Y-287.726660 Z-0.070979
G01 X24.481705 Y-287.831223 Z-0.050772
G01 X24.489636 Y-287.841355 Z-0.037902
G01 X24.417556 Y-287.897884 Z-0.037902
G01 X24.349117 Y-287.997988 Z-0.041148
G01 X24.457773 Y-288.025900 Z-0.069060
G01 X24.483991 Y-287.999936 Z-0.043095
G01 X24.510661 Y-287.936492 Z-0.017074
G01 X24.474678 Y-288.039023 Z-0.052042
G01 X24.528244 Y-287.886398 Z0.000000
G01 X24.474678 Y-288.039023 Z-0.052042
G01 X24.474678 Y-288.039023 Z-0.052014
G00 Z2.000000

G00 Z2.000000
G00 X24.950674 Y-287.418163

G01 Z-0.060678 F100.0(Penetrate)
G01 X24.950674 Y-287.418163 Z-0.060678 F400.000000
G01 X25.051399 Y-287.273834 Z-0.050885
G01 X25.129434 Y-287.174294 Z-0.050885
G01 X25.066075 Y-287.073118 Z-0.078147
G01 X24.974465 Y-287.199497 Z-0.035193
G01 X24.872019 Y-287.227747 Z-0.076200
G01 X24.819017 Y-287.361182 Z-0.048345
G01 X24.940909 Y-287.383280 Z-0.070443
G01 X24.967438 Y-287.356751 Z-0.043914
G01 X24.993995 Y-287.292687 Z-0.017357
G01 X24.950674 Y-287.418163 Z-0.060706
G01 X25.011352 Y-287.242395 Z0.000000
G01 X24.950674 Y-287.418163 Z-0.060706
G01 X24.950674 Y-287.418163 Z-0.060678
G00 Z2.000000

G00 Z2.000000
G00 X25.330207 Y-286.676313

G01 Z-0.060113 F100.0(Penetrate)
G01 X25.263348 Y-286.528683 Z-0.053396 F400.000000
G01 X25.206198 Y-286.684413 Z-0.047950
G01 X25.194317 Y-286.749155 Z-0.059831
G01 X25.152068 Y-286.824311 Z-0.102080
G01 X25.263292 Y-286.936833 Z-0.041007
G01 X25.330686 Y-286.822166 Z-0.060650
G01 X25.357667 Y-286.785816 Z-0.072051
G01 X25.334609 Y-286.716982 Z-0.048994
G01 X25.330207 Y-286.676313 Z-0.060113
G00 Z2.000000

G00 Z2.000000
G00 X25.014061 Y-286.564525

G01 Z-0.071261 F100.0(Penetrate)
G01 X24.973478 Y-286.336800 Z-0.069596 F400.000000
G01 X24.897645 Y-286.129423 Z-0.041910
G01 X24.899112 Y-286.078059 Z-0.077188
G01 X24.899112 Y-286.078059 Z-0.077188
G01 X24.886666 Y-286.089122 Z-0.060537
G01 X24.806233 Y-285.999121 Z-0.060537
G01 X24.708697 Y-286.114917 Z-0.103406
G01 X24.722300 Y-286.190496 Z-0.104817
G01 X24.722300 Y-286.190496 Z-0.104817
G01 X24.729835 Y-286.230938 Z-0.105551
G01 X24.754840 Y-286.380516 Z-0.105438
G01 X24.778011 Y-286.523716 Z-0.104563
G01 X24.861887 Y-287.032534 Z-0.099822
G01 X24.968398 Y-287.207851 Z-0.032343
G01 X25.079452 Y-287.070126 Z-0.089690
G01 X25.124184 Y-287.025140 Z-0.116388
G01 X25.067627 Y-286.790585 Z-0.086021
G01 X25.014061 Y-286.564525 Z-0.071261
G00 Z2.000000

G00 Z2.000000
G00 X24.981747 Y-286.166648

G01 Z-0.030762 F100.0(Penetrate)
G01 X24.955077 Y-286.074249 Z-0.040330 F400.000000
G01 X24.894681 Y-286.139696 Z-0.036745
G01 X24.900354 Y-286.201192 Z-0.028561
G01 X24.904728 Y-286.248662 Z-0.022239
G01 X24.926459 Y-286.318230 Z-0.027884
G01 X24.985133 Y-286.290516 Z-0.049784
G01 X24.995886 Y-286.256282 Z-0.033048
G01 X24.992104 Y-286.202434 Z-0.027037
G01 X24.981747 Y-286.166648 Z-0.030762
G00 Z2.000000

G00 Z2.000000
G00 X25.381769 Y-286.257157

G01 Z-0.109926 F100.0(Penetrate)
G01 X25.271815 Y-286.246037 Z0.000000 F400.000000
G01 X25.381769 Y-286.257157 Z-0.109926
G01 X25.414337 Y-286.117034 Z-0.113820
G01 X25.494573 Y-285.812290 Z-0.113228
G01 X25.558016 Y-285.589109 Z-0.108232
G01 X25.684903 Y-285.142774 Z-0.098270
G01 X25.475212 Y-284.589082 Z-0.145965
G01 X25.442757 Y-284.527304 Z-0.143087
G01 X24.755433 Y-283.209270 Z-0.086642
G01 X24.435731 Y-282.807357 Z-0.023424
G01 X24.402316 Y-283.351623 Z-0.135805
G01 X24.465534 Y-283.441426 Z-0.086360
G01 X24.534396 Y-283.697571 Z-0.055146
G01 X24.591829 Y-283.915446 Z-0.029549
G01 X24.569025 Y-284.146106 Z-0.085175
G01 X24.630437 Y-284.418253 Z-0.070612
G01 X24.596147 Y-284.543955 Z-0.131600
G01 X24.612741 Y-284.653344 Z-0.139333
G01 X24.737371 Y-284.935764 Z-0.066943
G01 X24.806543 Y-285.185277 Z-0.038495
G01 X24.870438 Y-285.776476 Z-0.069822
G01 X25.013102 Y-286.560433 Z-0.070979
G01 X25.039235 Y-286.670810 Z-0.078204
G01 X25.076940 Y-286.835741 Z-0.090283
G01 X25.190027 Y-286.772466 Z-0.064121
G01 X25.221607 Y-286.645128 Z-0.048401
G01 X25.244129 Y-286.587639 Z-0.049078
G01 X25.342878 Y-286.424430 Z-0.105269
G01 X25.381740 Y-286.257242 Z-0.109926
G01 X25.381740 Y-286.257242 Z-0.109926
G01 X25.381769 Y-286.257157 Z-0.109926
G00 Z2.000000

G00 Z2.000000
G00 X25.670059 Y-286.458720

G01 Z-0.070330 F100.0(Penetrate)
G01 X25.989224 Y-285.486436 Z-0.077611 F400.000000
G01 X26.304663 Y-284.257189 Z-0.074140
G01 X26.503884 Y-283.240117 Z-0.068947
G01 X26.555926 Y-282.974433 Z-0.067592
G01 X26.613753 Y-282.504561 Z-0.027376
G01 X26.677225 Y-282.205292 Z-0.025344
G01 X26.948949 Y-281.056846 Z-0.045127
G01 X27.091979 Y-280.316069 Z-0.035278
G01 X27.215423 Y-279.858078 Z-0.077357
G01 X27.263288 Y-279.592874 Z-0.078486
